;FLAVOR:Marlin
;TIME:6384
;Filament used: 3.06322m
;Layer height: 0.2
;MINX:77.941
;MINY:69.953
;MINZ:0.36
;MAXX:142.231
;MAXY:150.065
;MAXZ:96.11
;Generated with Cura_SteamEngine 4.5.0
M140 S110
M105
M190 S110
M104 S270
M105
M109 S270
M82 ;absolute extrusion mode
M201 X500.00 Y500.00 Z100.00 E5000.00 ;Setup machine max acceleration
M203 X500.00 Y500.00 Z10.00 E50.00 ;Setup machine max feedrate
M204 P500.00 R1000.00 T500.00 ;Setup Print/Retract/Travel acceleration
M205 X8.00 Y8.00 Z0.40 E5.00 ;Setup Jerk
M220 S100 ;Reset Feedrate
M221 S100 ;Reset Flowrate

G28 ;Home

G92 E0 ;Reset Extruder
G1 Z2.0 F3000 ;Move Z Axis up
G1 X10.1 Y20 Z0.28 F5000.0 ;Move to start position
G1 X10.1 Y200.0 Z0.28 F1500.0 E15 ;Draw the first line
G1 X10.4 Y200.0 Z0.28 F5000.0 ;Move to side a little
G1 X10.4 Y20 Z0.28 F1500.0 E30 ;Draw the second line
G92 E0 ;Reset Extruder
G1 Z2.0 F3000 ;Move Z Axis up

G92 E0
G92 E0
G1 F2700 E-5
;LAYER_COUNT:474
;LAYER:-6
M107
G0 F11250 X96.014 Y77.799 Z0.36
;TYPE:SUPPORT-INTERFACE
G1 F2700 E0
G1 F1687.5 X96.728 Y76.995 E0.12875
G1 X97.123 Y76.597 E0.19589
G1 X97.838 Y75.902 E0.31528
G1 X98.672 Y75.156 E0.44926
G1 X99.418 Y74.575 E0.56248
G1 X99.524 Y74.499 E0.5781
G1 X100.409 Y73.913 E0.70519
G1 X100.85 Y73.654 E0.76643
G1 X101.791 Y73.126 E0.89562
G1 X102.648 Y72.682 E1.01119
G1 X102.76 Y72.63 E1.02598
G1 X103.615 Y72.265 E1.13729
G1 X103.755 Y72.211 E1.15526
G1 X104.76 Y71.871 E1.28229
G1 X105.338 Y71.71 E1.35413
G1 X106.376 Y71.447 E1.48235
G1 X107.258 Y71.257 E1.59038
G1 X107.462 Y71.22 E1.6152
G1 X108.492 Y71.08 E1.73966
G1 X109.531 Y71.013 E1.86433
G1 X110.103 Y71.007 E1.93282
G1 X111.153 Y71.02 E2.05856
G1 X112.12 Y71.067 E2.17448
G1 X112.292 Y71.081 E2.19514
G1 X113.194 Y71.191 E2.30394
G1 X113.346 Y71.215 E2.32237
G1 X114.389 Y71.425 E2.44976
G1 X114.934 Y71.566 E2.51716
G1 X115.923 Y71.843 E2.64014
G1 X116.806 Y72.123 E2.75106
G1 X116.997 Y72.192 E2.77537
G1 X117.811 Y72.517 E2.88032
G1 X117.953 Y72.58 E2.89892
G1 X118.924 Y73.061 E3.02867
G1 X119.479 Y73.373 E3.1049
G1 X120.395 Y73.923 E3.23283
G1 X121.165 Y74.42 E3.34257
G1 X121.321 Y74.529 E3.36535
G1 X122.043 Y75.076 E3.47381
G1 X122.162 Y75.173 E3.49219
G1 X122.949 Y75.867 E3.61783
G1 X123.35 Y76.263 E3.68531
G1 X124.057 Y76.985 E3.80631
G1 X124.723 Y77.717 E3.9248
G1 X124.825 Y77.838 E3.94375
G1 X125.472 Y78.671 E4.07005
G1 X126.051 Y79.538 E4.19488
G1 X126.392 Y80.117 E4.27533
G1 X126.913 Y81.062 E4.40454
G1 X127.397 Y82.025 E4.53359
G1 X127.758 Y82.885 E4.64527
G1 X127.807 Y83.016 E4.66202
G1 X128.139 Y84.019 E4.78852
G1 X128.292 Y84.577 E4.8578
G1 X128.547 Y85.597 E4.98369
G1 X128.732 Y86.46 E5.08937
G1 X128.771 Y86.679 E5.11601
G1 X128.893 Y87.555 E5.22191
G1 X128.909 Y87.715 E5.24116
G1 X128.973 Y88.755 E5.36592
G1 X128.977 Y89.249 E5.42507
G1 X128.958 Y90.592 E5.5859
G1 X128.91 Y92.45 E5.80844
G1 X128.494 Y110.197 E7.93399
G1 X128.521 Y110.865 E8.01404
G1 X128.634 Y111.539 E8.09587
G1 X128.831 Y112.193 E8.17765
G1 X129.109 Y112.816 E8.25933
G1 X129.463 Y113.4 E8.3411
G1 X129.889 Y113.934 E8.4229
G1 X130.378 Y114.41 E8.50461
G1 X130.928 Y114.824 E8.58703
G1 X131.789 Y115.284 E8.70392
G1 X132.023 Y115.382 E8.73429
G1 X133.372 Y116.026 E8.91328
G1 X133.562 Y116.131 E8.93927
G1 X134.374 Y116.612 E9.05228
G1 X134.527 Y116.71 E9.07403
G1 X135.268 Y117.224 E9.18201
G1 X135.392 Y117.318 E9.20065
G1 X136.092 Y117.885 E9.30851
G1 X136.213 Y117.99 E9.32769
G1 X136.884 Y118.619 E9.43781
G1 X136.989 Y118.725 E9.45568
G1 X137.596 Y119.384 E9.56296
G1 X137.711 Y119.518 E9.5841
G1 X138.263 Y120.212 E9.69028
G1 X138.368 Y120.354 E9.71142
G1 X138.866 Y121.083 E9.81713
G1 X138.965 Y121.239 E9.83926
G1 X139.408 Y122.004 E9.9451
G1 X139.486 Y122.151 E9.96503
G1 X139.88 Y122.959 E10.07267
G1 X139.948 Y123.112 E10.09271
G1 X140.287 Y123.962 E10.20229
G1 X140.342 Y124.116 E10.22187
G1 X140.608 Y124.954 E10.32714
G1 X140.656 Y125.123 E10.34817
G1 X140.862 Y125.991 E10.45499
G1 X140.9 Y126.185 E10.47866
G1 X141.039 Y127.041 E10.5825
G1 X141.063 Y127.237 E10.60614
G1 X141.141 Y128.113 E10.71145
G1 X141.15 Y128.282 E10.73171
G1 X141.167 Y128.945 E10.81112
G1 X141.167 Y129.603 E10.88991
G1 X141.131 Y130.609 E11.01044
G1 X141.121 Y130.744 E11.02665
G1 X141.019 Y131.661 E11.13713
G1 X140.995 Y131.828 E11.15733
G1 X140.832 Y132.714 E11.26519
G1 X140.802 Y132.848 E11.28164
G1 X140.567 Y133.747 E11.3929
G1 X140.524 Y133.89 E11.41078
G1 X140.232 Y134.747 E11.51918
G1 X140.169 Y134.913 E11.54044
G1 X139.828 Y135.718 E11.64512
G1 X139.755 Y135.873 E11.66564
G1 X139.088 Y137.125 E11.83549
G1 X138.588 Y137.91 E11.94693
G1 X138.484 Y138.062 E11.96899
G1 X137.944 Y138.786 E12.07713
G1 X137.842 Y138.913 E12.09664
G1 X137.258 Y139.589 E12.2036
G1 X137.134 Y139.722 E12.22537
G1 X136.503 Y140.352 E12.33214
G1 X136.388 Y140.459 E12.35094
G1 X135.567 Y141.16 E12.48021
G1 X134.849 Y141.692 E12.58721
G1 X134.715 Y141.784 E12.60667
G1 X133.789 Y142.368 E12.73775
G1 X132.076 Y143.356 E12.97453
G1 X131.121 Y143.86 E13.10383
G1 X128.52 Y145.121 E13.44993
G1 X127.147 Y145.702 E13.62844
G1 X124.78 Y146.564 E13.93007
G1 X123.563 Y146.947 E14.08283
G1 X119.946 Y147.925 E14.53147
G1 X118.554 Y148.226 E14.702
G1 X116.423 Y148.586 E14.96077
G1 X115.545 Y148.707 E15.06689
G1 X114.862 Y148.781 E15.14915
G1 X114.428 Y148.821 E15.20134
G1 X112.531 Y148.961 E15.4291
G1 X111.442 Y149 E15.55957
G1 X109.072 Y148.996 E15.84335
G1 X108.133 Y148.974 E15.95581
G1 X107.62 Y148.953 E16.01729
G1 X105.339 Y148.822 E16.29086
G1 X104.181 Y148.708 E16.43018
G1 X103.589 Y148.615 E16.50194
G1 X102.655 Y148.453 E16.61544
G1 X101.851 Y148.333 E16.71277
G1 X100.794 Y148.134 E16.84156
G1 X99.982 Y147.95 E16.94125
G1 X98.883 Y147.679 E17.07678
G1 X97.356 Y147.271 E17.26603
G1 X96.356 Y146.965 E17.39125
G1 X93.728 Y146.052 E17.72437
G1 X92.481 Y145.552 E17.88523
G1 X91.556 Y145.132 E18.00687
G1 X90.291 Y144.588 E18.17175
G1 X89.086 Y144.003 E18.33214
G1 X87.836 Y143.331 E18.50207
G1 X87.081 Y142.896 E18.6064
G1 X85.846 Y142.135 E18.78009
G1 X85.044 Y141.601 E18.89546
G1 X84.893 Y141.491 E18.91783
G1 X84.213 Y140.963 E19.02091
G1 X84.066 Y140.84 E19.04386
G1 X83.402 Y140.24 E19.15102
G1 X83.286 Y140.128 E19.17032
G1 X82.65 Y139.464 E19.28042
G1 X82.551 Y139.352 E19.29832
G1 X81.981 Y138.662 E19.40548
G1 X81.871 Y138.52 E19.42699
G1 X81.347 Y137.782 E19.53536
G1 X81.267 Y137.66 E19.55283
G1 X80.758 Y136.819 E19.67053
G1 X80.306 Y135.951 E19.78771
G1 X80.238 Y135.809 E19.80656
G1 X79.883 Y134.986 E19.91388
G1 X79.822 Y134.829 E19.93405
G1 X79.533 Y133.993 E20.03996
G1 X79.468 Y133.78 E20.06663
G1 X79.249 Y132.955 E20.16883
G1 X79.209 Y132.781 E20.19021
G1 X79.04 Y131.892 E20.29856
G1 X79.016 Y131.738 E20.31722
G1 X78.912 Y130.836 E20.42594
G1 X78.899 Y130.679 E20.4448
G1 X78.863 Y129.986 E20.52789
G1 X78.845 Y129.317 E20.60803
G1 X78.86 Y128.217 E20.73975
G1 X78.952 Y127.141 E20.86905
G1 X79.089 Y126.26 E20.97581
G1 X79.123 Y126.082 E20.99751
G1 X79.323 Y125.215 E21.10405
G1 X79.363 Y125.065 E21.12263
G1 X79.634 Y124.189 E21.23243
G1 X79.682 Y124.053 E21.2497
G1 X80.018 Y123.192 E21.36036
G1 X80.077 Y123.055 E21.37822
G1 X80.462 Y122.249 E21.48517
G1 X80.555 Y122.071 E21.50922
G1 X80.982 Y121.324 E21.61225
G1 X81.088 Y121.153 E21.63634
G1 X81.585 Y120.414 E21.74297
G1 X81.68 Y120.284 E21.76225
G1 X82.231 Y119.582 E21.8691
G1 X82.338 Y119.454 E21.88908
G1 X82.937 Y118.795 E21.99571
G1 X83.072 Y118.656 E22.01891
G1 X83.714 Y118.046 E22.12495
G1 X83.83 Y117.944 E22.14345
G1 X84.522 Y117.376 E22.25064
G1 X84.678 Y117.258 E22.27406
G1 X85.742 Y116.524 E22.42883
G1 X85.814 Y116.481 E22.43888
G1 X86.617 Y116.008 E22.55046
G1 X86.76 Y115.931 E22.56991
G1 X87.568 Y115.532 E22.67781
G1 X87.725 Y115.461 E22.69844
G1 X88.567 Y115.12 E22.80722
G1 X88.755 Y115.051 E22.83119
G1 X89.37 Y114.784 E22.91147
G1 X89.956 Y114.435 E22.99314
G1 X90.494 Y114.013 E23.07501
G1 X90.975 Y113.528 E23.1568
G1 X91.39 Y112.986 E23.23853
G1 X91.734 Y112.397 E23.32021
G1 X92 Y111.768 E23.40198
G1 X92.186 Y111.111 E23.48374
G1 X92.286 Y110.437 E23.56532
G1 X92.304 Y109.858 E23.63468
G1 X91.835 Y90.513 E25.95167
G1 X91.836 Y89.757 E26.04219
G1 X91.856 Y88.687 E26.17033
G1 X91.902 Y87.785 E26.27847
G1 X91.917 Y87.619 E26.29843
G1 X92.03 Y86.73 E26.40573
G1 X92.06 Y86.549 E26.4277
G1 X92.271 Y85.52 E26.55347
G1 X92.409 Y84.991 E26.61893
G1 X92.679 Y84.036 E26.73776
G1 X92.987 Y83.082 E26.8578
G1 X93.041 Y82.932 E26.87688
G1 X93.439 Y81.961 E27.00254
G1 X93.917 Y81 E27.13105
G1 X94.207 Y80.489 E27.2014
G1 X94.772 Y79.551 E27.33252
G1 X95.294 Y78.746 E27.4474
G1 X95.365 Y78.646 E27.46208
G1 X96.014 Y77.799 E27.58985
G0 F11250 X96 Y77.817
G1 F1687.5 X96 Y146.841 E35.85454
G0 F11250 X97.6 Y147.336
G1 F1687.5 X97.6 Y76.133 E44.38013
G0 F11250 X99.2 Y74.744
G1 F1687.5 X99.2 Y147.757 E53.12245
G0 F11250 X100.8 Y148.135
G1 F1687.5 X100.8 Y73.683 E62.03708
G0 F11250 X102.4 Y72.81
G1 F1687.5 X102.4 Y148.414 E71.08963
G0 F11250 X104 Y148.679
G1 F1687.5 X104 Y72.128 E80.25558
G0 F11250 X105.6 Y71.643
G1 F1687.5 X105.6 Y148.836 E89.4984
G0 F11250 X107.2 Y148.928
G1 F1687.5 X107.2 Y71.269 E98.79702
G0 F11250 X108.8 Y71.06
G1 F1687.5 X108.8 Y148.989 E108.12796
G0 F11250 X110.4 Y148.998
G1 F1687.5 X110.4 Y71.011 E117.46585
G0 F11250 X112 Y71.062
G1 F1687.5 X112 Y148.981 E126.7956
G0 F11250 X113.6 Y148.883
G1 F1687.5 X113.6 Y71.267 E136.08906
G0 F11250 X115.2 Y71.641
G1 F1687.5 X115.2 Y148.745 E145.32123
G0 F11250 X116.8 Y148.523
G1 F1687.5 X116.8 Y72.122 E154.46921
G0 F11250 X118.4 Y72.802
G1 F1687.5 X118.4 Y148.253 E163.50345
G0 F11250 X120 Y147.911
G1 F1687.5 X120 Y73.686 E172.39089
G0 F11250 X121.6 Y74.741
G1 F1687.5 X121.6 Y147.478 E181.10016
G0 F11250 X123.2 Y147.046
G1 F1687.5 X123.2 Y76.115 E189.59319
G0 F11250 X124.8 Y77.809
G1 F1687.5 X124.8 Y146.557 E197.82484
G0 F11250 X126.4 Y145.975
G1 F1687.5 X126.4 Y80.132 E205.70865
G0 F11250 X128 Y83.6
G1 F1687.5 X128 Y145.342 E213.10142
G0 F11250 X129.6 Y144.598
G1 F1687.5 X129.6 Y113.572 E216.81636
G0 F11250 X131.2 Y114.97
G1 F1687.5 X131.2 Y143.819 E220.27064
G0 F11250 X132.8 Y142.939
G1 F1687.5 X132.8 Y115.753 E223.52579
G0 F11250 X134.4 Y116.629
G1 F1687.5 X134.4 Y141.983 E226.56159
G0 F11250 X136 Y140.791
G1 F1687.5 X136 Y117.811 E229.31314
G0 F11250 X137.6 Y119.389
G1 F1687.5 X137.6 Y139.194 E231.68452
G0 F11250 X139.2 Y136.915
G1 F1687.5 X139.2 Y121.645 E233.51289
G0 F11250 X140.8 Y125.73
G1 F1687.5 X140.8 Y132.856 E234.36614
G1 F2700 E229.36614
G0 F11250 X141.83 Y133.125
G0 X141.236 Y135.102
G0 X140.703 Y136.356
G0 X139.988 Y137.692
G0 X138.781 Y139.444
G0 X137.904 Y140.457
G0 X136.376 Y141.875
G0 X135.294 Y142.677
G0 X132.591 Y144.288
G0 X128.954 Y146.093
G0 X127.528 Y146.696
G0 X123.982 Y147.934
G0 X120.183 Y148.962
G0 X118.749 Y149.273
G0 X115.049 Y149.833
G0 X111.463 Y150.064
G0 X107.572 Y150.016
G0 X104.043 Y149.763
G0 X100.023 Y149.053
G0 X96.501 Y148.109
G0 X94.051 Y147.294
G0 X94.4 Y146.285
G1 F2700 E234.36614
G1 F1687.5 X94.4 Y80.168 E242.28275
G0 F11250 X92.8 Y83.661
G1 F1687.5 X92.8 Y145.679 E249.70857
G0 F11250 X91.2 Y144.978
G1 F1687.5 X91.2 Y113.234 E253.50949
G0 F11250 X89.6 Y114.647
G1 F1687.5 X89.6 Y144.252 E257.05429
G0 F11250 X88 Y143.419
G1 F1687.5 X88 Y115.349 E260.41529
G0 F11250 X86.4 Y116.135
G1 F1687.5 X86.4 Y142.476 E263.56927
G0 F11250 X84.8 Y141.418
G1 F1687.5 X84.8 Y117.173 E266.47228
G0 F11250 X83.2 Y118.534
G1 F1687.5 X83.2 Y140.038 E269.04709
G0 F11250 X81.6 Y138.138
G1 F1687.5 X81.6 Y120.393 E271.17182
G0 F11250 X80 Y123.238
G1 F1687.5 X80 Y135.257 E272.61093
G0 F300 X80 Y135.257 Z0.66
G0 F11250 X81.87 Y138.518
;TIME_ELAPSED:92.253774
;LAYER:-5
M140 S110
;TYPE:SUPPORT
G1 F1687.5 X81.981 Y138.661 E272.62899
G1 X82.551 Y139.351 E272.71829
G1 X82.65 Y139.463 E272.73321
G1 X83.285 Y140.127 E272.82488
G1 X83.401 Y140.239 E272.84097
G1 X84.065 Y140.839 E272.93027
G1 X84.212 Y140.962 E272.94939
G1 X84.893 Y141.489 E273.03531
G1 X84.997 Y141.565 E273.04817
G1 X81.676 Y138.245 E273.51673
G1 X81.346 Y137.781 E273.57354
G1 X81.267 Y137.658 E273.58813
G1 X80.757 Y136.818 E273.68618
G1 X80.306 Y135.949 E273.78387
G1 X80.238 Y135.808 E273.79949
G1 X79.922 Y135.077 E273.87895
G1 X88.57 Y143.725 E275.09928
G1 X89.085 Y144.002 E275.15763
G1 X90.291 Y144.587 E275.29137
G1 X91.265 Y145.005 E275.39713
G1 X79.261 Y133.001 E277.09102
G1 X79.248 Y132.953 E277.09599
G1 X79.208 Y132.78 E277.1137
G1 X79.039 Y131.891 E277.204
G1 X79.015 Y131.737 E277.21955
G1 X78.964 Y131.289 E277.26454
G1 X93.723 Y146.049 E279.34726
G1 X93.728 Y146.051 E279.3478
G1 X95.89 Y146.801 E279.57614
G1 X78.856 Y129.768 E281.97975
G1 X78.844 Y129.316 E282.02487
G1 X78.857 Y128.355 E282.12076
G1 X97.924 Y147.421 E284.81125
G1 X98.883 Y147.677 E284.91029
G1 X99.827 Y147.911 E285.00734
G1 X78.965 Y127.048 E287.95126
G1 X79.089 Y126.258 E288.03105
G1 X79.122 Y126.081 E288.04902
G1 X79.176 Y125.845 E288.07317
G1 X101.619 Y148.288 E291.24012
G1 X101.85 Y148.331 E291.26357
G1 X102.654 Y148.452 E291.3447
G1 X103.311 Y148.566 E291.41123
G1 X79.468 Y124.723 E294.77574
G1 X79.633 Y124.188 E294.8316
G1 X79.681 Y124.052 E294.84599
G1 X79.83 Y123.67 E294.8869
G1 X104.941 Y148.781 E298.43034
G1 X105.338 Y148.821 E298.47015
G1 X106.458 Y148.884 E298.58208
G1 X80.255 Y122.681 E302.27961
G1 X80.462 Y122.248 E302.3275
G1 X80.555 Y122.07 E302.34753
G1 X80.737 Y121.749 E302.38435
G1 X107.953 Y148.965 E306.22483
G1 X108.133 Y148.973 E306.2428
G1 X109.071 Y148.995 E306.33642
G1 X109.397 Y148.995 E306.36895
G1 X81.274 Y120.872 E310.33741
G1 X81.584 Y120.413 E310.39268
G1 X81.68 Y120.283 E310.4088
G1 X81.864 Y120.048 E310.43858
G1 X110.814 Y148.998 E314.52374
G1 X111.442 Y148.999 E314.5864
G1 X112.201 Y148.971 E314.66219
G1 X82.502 Y119.271 E318.85311
G1 X82.937 Y118.794 E318.91752
G1 X83.072 Y118.655 E318.93686
G1 X83.189 Y118.545 E318.95288
G1 X113.53 Y148.886 E323.23432
G1 X114.428 Y148.82 E323.32417
G1 X114.84 Y148.781 E323.36546
G1 X83.925 Y117.866 E327.7279
G1 X84.521 Y117.375 E327.80495
G1 X84.678 Y117.257 E327.82455
G1 X84.709 Y117.236 E327.82829
G1 X116.101 Y148.628 E332.25804
G1 X116.423 Y148.585 E332.29045
G1 X117.32 Y148.433 E332.38123
G1 X85.546 Y116.659 E336.86488
G1 X85.741 Y116.523 E336.88861
G1 X85.814 Y116.48 E336.89706
G1 X86.423 Y116.121 E336.9676
G1 X118.53 Y148.228 E341.49824
G1 X118.553 Y148.225 E341.50056
G1 X119.694 Y147.978 E341.61704
G1 X87.353 Y115.638 E346.18064
G1 X87.568 Y115.531 E346.2046
G1 X87.725 Y115.46 E346.22179
G1 X88.34 Y115.211 E346.288
G1 X120.818 Y147.688 E350.87092
G1 X121.931 Y147.387 E350.98597
G1 X89.34 Y114.796 E355.58491
G1 X89.369 Y114.783 E355.58808
G1 X89.956 Y114.434 E355.65622
G1 X90.201 Y114.242 E355.68728
G1 X123.044 Y147.085 E360.32178
G1 X123.563 Y146.945 E360.37542
G1 X124.137 Y146.764 E360.43547
G1 X90.937 Y113.564 E365.12035
G1 X90.974 Y113.527 E365.12557
G1 X91.39 Y112.985 E365.19375
G1 X91.53 Y112.743 E365.22164
G1 X125.197 Y146.41 E369.97242
G1 X126.234 Y146.033 E370.08252
G1 X91.989 Y111.788 E374.91486
G1 X91.999 Y111.767 E374.91718
G1 X92.186 Y111.109 E374.98544
G1 X92.255 Y110.64 E375.03274
G1 X127.265 Y145.65 E379.97303
G1 X128.259 Y145.229 E380.08074
G1 X92.289 Y109.26 E385.15642
G1 X92.254 Y107.81 E385.30115
G1 X129.222 Y144.778 E390.51773
G1 X130.174 Y144.316 E390.62332
G1 X92.218 Y106.36 E395.97932
G1 X92.183 Y104.911 E396.12394
G1 X131.127 Y143.855 E401.61936
G1 X132.052 Y143.366 E401.72376
G1 X92.148 Y103.462 E407.35465
G1 X92.113 Y102.012 E407.49937
G1 X132.95 Y142.85 E413.26198
G1 X133.788 Y142.367 E413.35849
G1 X133.845 Y142.33 E413.36527
G1 X92.078 Y100.563 E419.25905
G1 X92.042 Y99.113 E419.40377
G1 X134.713 Y141.784 E425.42511
