;FLAVOR:Marlin
;TIME:3346
;Filament used: 1.1054m
;Layer height: 0.1
;MINX:25.716
;MINY:148.729
;MINZ:0.36
;MAXX:84.995
;MAXY:204.766
;MAXZ:20.86
;Generated with Cura_SteamEngine 4.5.0
M140 S110
M105
M190 S110
M104 S260
M105
M109 S260
M82 ;absolute extrusion mode
M201 X500.00 Y500.00 Z100.00 E5000.00 ;Setup machine max acceleration
M203 X500.00 Y500.00 Z10.00 E50.00 ;Setup machine max feedrate
M204 P500.00 R1000.00 T500.00 ;Setup Print/Retract/Travel acceleration
M205 X8.00 Y8.00 Z0.40 E5.00 ;Setup Jerk
M220 S100 ;Reset Feedrate
M221 S100 ;Reset Flowrate

G28 ;Home

G92 E0 ;Reset Extruder
G1 Z2.0 F3000 ;Move Z Axis up
G1 X10.1 Y20 Z0.28 F5000.0 ;Move to start position
G1 X10.1 Y200.0 Z0.28 F1500.0 E15 ;Draw the first line
G1 X10.4 Y200.0 Z0.28 F5000.0 ;Move to side a little
G1 X10.4 Y20 Z0.28 F1500.0 E30 ;Draw the second line
G92 E0 ;Reset Extruder
G1 Z2.0 F3000 ;Move Z Axis up

G92 E0
G92 E0
G1 F2700 E-5
;LAYER_COUNT:198
;LAYER:-9
M107
G0 F10500 X47.204 Y150.956 Z0.36
;TYPE:SUPPORT-INTERFACE
G1 F2700 E0
G1 F1800 X47.33 Y150.919 E0.01572
G1 X48.702 Y150.552 E0.18578
G1 X49.776 Y150.32 E0.31734
G1 X50.896 Y150.122 E0.45353
G1 X51.824 Y149.992 E0.56573
G1 X52.725 Y149.895 E0.67423
G1 X53.507 Y149.834 E0.76815
G1 X54.424 Y149.795 E0.87805
G1 X54.597 Y149.794 E0.89876
G1 X55.108 Y149.809 E0.95997
G1 X55.441 Y149.808 E0.99985
G1 X55.682 Y149.8 E1.02872
G1 X56.743 Y149.805 E1.15576
G1 X57.352 Y149.842 E1.22881
G1 X58.427 Y149.935 E1.35801
G1 X59.568 Y150.08 E1.49573
G1 X60.799 Y150.286 E1.64518
G1 X61.809 Y150.492 E1.7686
G1 X62.58 Y150.68 E1.86362
G1 X63.451 Y150.922 E1.97186
G1 X63.614 Y150.974 E1.99235
G1 X64.6 Y151.333 E2.11799
G1 X65.453 Y151.711 E2.2297
G1 X65.595 Y151.782 E2.24871
G1 X66.514 Y152.279 E2.37381
G1 X67.298 Y152.775 E2.4849
G1 X67.425 Y152.862 E2.50333
G1 X68.134 Y153.387 E2.60896
G1 X68.298 Y153.519 E2.63417
G1 X68.948 Y154.077 E2.73674
G1 X69.097 Y154.214 E2.76098
G1 X69.717 Y154.832 E2.86579
G1 X69.823 Y154.945 E2.88435
G1 X70.412 Y155.623 E2.99188
G1 X70.527 Y155.765 E3.01376
G1 X71.08 Y156.506 E3.12447
G1 X71.16 Y156.623 E3.14144
G1 X71.637 Y157.369 E3.24746
G1 X71.731 Y157.527 E3.26948
G1 X72.22 Y158.443 E3.39381
G1 X72.602 Y159.291 E3.50517
G1 X72.658 Y159.429 E3.523
G1 X72.964 Y160.267 E3.62982
G1 X73.023 Y160.45 E3.65284
G1 X73.264 Y161.3 E3.75863
G1 X73.308 Y161.478 E3.78059
G1 X73.513 Y162.497 E3.90504
G1 X73.648 Y163.569 E4.03441
G1 X73.706 Y164.686 E4.16834
G1 X73.708 Y164.827 E4.18522
G1 X73.76 Y165.495 E4.26545
G1 X73.898 Y166.168 E4.34771
G1 X74.207 Y167.011 E4.45521
G1 X74.238 Y167.076 E4.46384
G1 X74.363 Y167.326 E4.4973
G1 X74.694 Y167.929 E4.57967
G1 X74.829 Y168.148 E4.61047
G1 X75.045 Y168.468 E4.6567
G1 X75.463 Y168.992 E4.73696
G1 X75.952 Y169.468 E4.81867
G1 X76.493 Y169.876 E4.8998
G1 X77.025 Y170.195 E4.97408
G1 X77.898 Y170.776 E5.09964
G1 X78.757 Y171.446 E5.23008
G1 X79.418 Y172.038 E5.33633
G1 X79.57 Y172.182 E5.3614
G1 X80.175 Y172.811 E5.4659
G1 X80.284 Y172.933 E5.48549
G1 X80.851 Y173.611 E5.59131
G1 X80.977 Y173.774 E5.61598
G1 X81.484 Y174.483 E5.72035
G1 X81.584 Y174.634 E5.74203
G1 X82.054 Y175.401 E5.84974
G1 X82.13 Y175.538 E5.8685
G1 X82.539 Y176.333 E5.97555
G1 X82.618 Y176.5 E5.99767
G1 X82.967 Y177.317 E6.10405
G1 X83.028 Y177.474 E6.12421
G1 X83.362 Y178.472 E6.25023
G1 X83.629 Y179.508 E6.37833
G1 X83.793 Y180.392 E6.48598
G1 X83.819 Y180.568 E6.50728
G1 X83.919 Y181.465 E6.61535
G1 X83.931 Y181.624 E6.63444
G1 X83.964 Y182.508 E6.74036
G1 X83.965 Y182.686 E6.76168
G1 X83.933 Y183.595 E6.87058
G1 X83.922 Y183.745 E6.88859
G1 X83.801 Y184.807 E7.01658
G1 X83.653 Y185.637 E7.11752
G1 X83.627 Y185.749 E7.13129
G1 X83.228 Y187.254 E7.31772
G1 X82.896 Y188.29 E7.44798
G1 X82.519 Y189.332 E7.58066
G1 X82.141 Y190.263 E7.70097
G1 X81.782 Y191.073 E7.80706
G1 X81.49 Y191.688 E7.88858
G1 X80.952 Y192.71 E8.02687
G1 X80.657 Y193.188 E8.09412
G1 X80.487 Y193.484 E8.13499
G1 X80.385 Y193.679 E8.16134
G1 X79.86 Y194.578 E8.286
G1 X79.494 Y195.132 E8.3655
G1 X78.913 Y195.961 E8.48671
G1 X78.267 Y196.817 E8.61512
G1 X77.665 Y197.56 E8.72962
G1 X76.972 Y198.355 E8.8559
G1 X76.292 Y199.082 E8.97509
G1 X75.514 Y199.852 E9.10616
G1 X74.719 Y200.533 E9.2315
G1 X73.851 Y201.172 E9.36055
G1 X73.076 Y201.663 E9.47041
G1 X72.93 Y201.748 E9.49063
G1 X72.134 Y202.175 E9.59879
G1 X71.99 Y202.246 E9.61802
G1 X71.195 Y202.6 E9.72222
G1 X70.992 Y202.682 E9.74843
G1 X70.183 Y202.974 E9.85142
G1 X70.003 Y203.032 E9.87406
G1 X68.999 Y203.309 E9.99877
G1 X68.1 Y203.491 E10.10859
G1 X67.944 Y203.517 E10.12753
G1 X67.027 Y203.634 E10.23822
G1 X66.882 Y203.647 E10.25565
G1 X65.999 Y203.695 E10.36153
G1 X65.811 Y203.699 E10.38405
G1 X64.902 Y203.682 E10.49291
G1 X64.755 Y203.673 E10.51054
G1 X63.869 Y203.592 E10.61707
G1 X63.688 Y203.569 E10.63892
G1 X62.815 Y203.423 E10.7449
G1 X62.619 Y203.383 E10.76885
G1 X61.609 Y203.133 E10.89343
G1 X60.733 Y202.852 E11.00359
G1 X60.604 Y202.805 E11.02003
G1 X59.769 Y202.467 E11.12789
G1 X59.595 Y202.388 E11.15077
G1 X58.464 Y201.815 E11.30258
G1 X57.962 Y201.546 E11.37077
G1 X57.952 Y201.562 E11.37303
G1 X57.803 Y201.489 E11.3929
G1 X57.156 Y201.268 E11.47476
G1 X56.494 Y201.132 E11.55568
G1 X56.085 Y201.09 E11.60491
G1 X55.551 Y201.068 E11.66891
G1 X55.298 Y201.066 E11.6992
G1 X54.865 Y201.077 E11.75106
G1 X54.535 Y201.1 E11.79067
G1 X53.873 Y201.2 E11.87084
G1 X53.216 Y201.387 E11.95263
G1 X52.593 Y201.653 E12.03374
G1 X52.069 Y201.944 E12.10551
G1 X51.115 Y202.416 E12.23295
G1 X50.271 Y202.765 E12.34231
G1 X50.12 Y202.821 E12.36159
G1 X49.262 Y203.103 E12.46973
G1 X49.112 Y203.147 E12.48845
G1 X48.229 Y203.369 E12.59747
G1 X48.078 Y203.401 E12.61595
G1 X47.175 Y203.559 E12.72571
G1 X47.035 Y203.578 E12.74263
G1 X46.12 Y203.669 E12.85273
G1 X45.956 Y203.679 E12.8724
G1 X45.063 Y203.702 E12.97936
G1 X44.902 Y203.701 E12.99864
G1 X43.984 Y203.658 E13.10868
G1 X43.822 Y203.645 E13.12814
G1 X42.931 Y203.539 E13.23558
G1 X42.783 Y203.515 E13.25353
G1 X41.886 Y203.339 E13.36298
G1 X41.726 Y203.302 E13.38264
G1 X40.863 Y203.067 E13.48974
G1 X40.697 Y203.015 E13.51057
G1 X39.858 Y202.72 E13.61706
G1 X39.698 Y202.657 E13.63765
G1 X38.867 Y202.294 E13.74623
G1 X38.719 Y202.223 E13.76588
G1 X37.908 Y201.796 E13.87562
G1 X37.79 Y201.728 E13.89193
G1 X37.022 Y201.248 E14.00037
G1 X36.884 Y201.155 E14.0203
G1 X36.146 Y200.617 E14.12965
G1 X36.031 Y200.524 E14.14736
G1 X34.98 Y199.607 E14.31437
G1 X34.777 Y199.408 E14.34841
G1 X34.035 Y198.637 E14.47653
G1 X33.281 Y197.789 E14.6124
G1 X32.541 Y196.891 E14.75173
G1 X31.847 Y195.976 E14.88923
G1 X31.407 Y195.361 E14.97978
G1 X31.108 Y194.914 E15.04417
G1 X30.611 Y194.119 E15.15643
G1 X30.516 Y193.955 E15.17912
G1 X30.357 Y193.651 E15.2202
G1 X30.158 Y193.306 E15.26789
G1 X30.044 Y193.126 E15.2934
G1 X29.594 Y192.346 E15.40123
G1 X29.515 Y192.198 E15.42131
G1 X29.199 Y191.56 E15.50656
G1 X28.798 Y190.699 E15.62029
G1 X28.329 Y189.573 E15.76634
G1 X27.904 Y188.433 E15.91202
G1 X27.582 Y187.468 E16.03382
G1 X27.366 Y186.731 E16.12578
G1 X27.144 Y185.87 E16.23225
G1 X27.1 Y185.668 E16.257
G1 X26.942 Y184.801 E16.36252
G1 X26.916 Y184.621 E16.3843
G1 X26.821 Y183.727 E16.49194
G1 X26.811 Y183.579 E16.50971
G1 X26.78 Y182.671 E16.61849
G1 X26.781 Y182.509 E16.63789
G1 X26.816 Y181.612 E16.74537
G1 X26.83 Y181.427 E16.76759
G1 X26.93 Y180.543 E16.87411
G1 X26.952 Y180.399 E16.89155
G1 X27.119 Y179.508 E17.0001
G1 X27.155 Y179.349 E17.01962
G1 X27.384 Y178.484 E17.12676
G1 X27.444 Y178.287 E17.15141
G1 X27.728 Y177.461 E17.256
G1 X27.789 Y177.303 E17.27628
G1 X28.205 Y176.342 E17.40166
G1 X28.629 Y175.524 E17.51198
G1 X28.7 Y175.398 E17.5293
G1 X29.188 Y174.604 E17.64089
G1 X29.269 Y174.483 E17.65833
G1 X29.786 Y173.764 E17.76436
G1 X29.907 Y173.608 E17.788
G1 X30.486 Y172.917 E17.89595
G1 X30.594 Y172.797 E17.91528
G1 X31.199 Y172.171 E18.01952
G1 X31.34 Y172.037 E18.04281
G1 X32.005 Y171.444 E18.14949
G1 X32.152 Y171.323 E18.17229
G1 X32.827 Y170.805 E18.27417
G1 X33.001 Y170.683 E18.29961
G1 X34.104 Y169.975 E18.45655
G1 X34.651 Y169.588 E18.53678
G1 X35.156 Y169.128 E18.61857
G1 X35.598 Y168.606 E18.70047
G1 X35.654 Y168.53 E18.71177
G1 X35.87 Y168.218 E18.75721
G1 X36.006 Y168.005 E18.78747
G1 X36.303 Y167.486 E18.85907
G1 X36.488 Y167.122 E18.90796
G1 X36.746 Y166.504 E18.98814
G1 X36.927 Y165.845 E19.06997
G1 X37.023 Y165.173 E19.15125
G1 X37.04 Y164.71 E19.20673
G1 X37.039 Y164.538 E19.22732
G1 X37.045 Y164.348 E19.25008
G1 X37.101 Y163.482 E19.35399
G1 X37.119 Y163.301 E19.37577
G1 X37.24 Y162.426 E19.48154
G1 X37.268 Y162.264 E19.50122
G1 X37.492 Y161.242 E19.6265
G1 X37.758 Y160.327 E19.74059
G1 X37.801 Y160.2 E19.75665
G1 X38.179 Y159.202 E19.88443
G1 X38.553 Y158.388 E19.99169
G1 X38.629 Y158.236 E20.01204
G1 X39.064 Y157.444 E20.12023
G1 X39.151 Y157.298 E20.14058
G1 X39.647 Y156.534 E20.24965
G1 X39.727 Y156.421 E20.26623
G1 X40.288 Y155.681 E20.37741
G1 X40.386 Y155.561 E20.39597
G1 X40.983 Y154.883 E20.50413
G1 X41.08 Y154.781 E20.52099
G1 X41.75 Y154.124 E20.63334
G1 X41.848 Y154.036 E20.64911
G1 X42.537 Y153.452 E20.75726
G1 X42.69 Y153.332 E20.78054
G1 X43.524 Y152.729 E20.90377
G1 X44.311 Y152.238 E21.01484
G1 X44.449 Y152.16 E21.03382
G1 X45.227 Y151.752 E21.13901
G1 X45.401 Y151.669 E21.16209
G1 X46.352 Y151.259 E21.28609
G1 X47.204 Y150.956 E21.39437
G0 F10500 X48 Y150.739
G1 F1800 X48 Y203.415 E27.70161
G0 F10500 X46.4 Y203.642
G1 F1800 X46.4 Y151.241 E33.97592
G0 F10500 X44.8 Y151.975
G1 F1800 X44.8 Y203.696 E40.16881
G0 F10500 X43.2 Y203.571
G1 F1800 X43.2 Y152.963 E46.22843
G0 F10500 X41.6 Y154.271
G1 F1800 X41.6 Y203.267 E52.09504
G0 F10500 X40 Y202.769
G1 F1800 X40 Y156.06 E57.68781
G0 F10500 X38.4 Y158.721
G1 F1800 X38.4 Y202.055 E62.87647
G0 F10500 X36.8 Y201.093
G1 F1800 X36.8 Y166.307 E67.04163
G0 F10500 X35.2 Y169.076
G1 F1800 X35.2 Y199.798 E70.72017
G0 F10500 X33.6 Y198.147
G1 F1800 X33.6 Y170.298 E74.05471
G0 F10500 X32 Y171.448
G1 F1800 X32 Y196.177 E77.01568
G0 F10500 X30.4 Y193.733
G1 F1800 X30.4 Y173.019 E79.4959
G0 F10500 X28.8 Y175.235
G1 F1800 X28.8 Y190.703 E81.34798
G1 F2700 E76.34798
G0 F10500 X27.817 Y191.111
G0 X27.076 Y189.229
G0 X26.338 Y187.008
G0 X27.2 Y186.087
G1 F2700 E81.34798
G1 F1800 X27.2 Y179.179 E82.17512
G1 F2700 E77.17512
G0 F10500 X26.078 Y179.286
G0 X25.77 Y181.335
G0 X25.716 Y182.694
G0 X25.861 Y184.76
G0 X26.107 Y186.109
G0 X26.901 Y188.786
G0 X27.827 Y191.136
G0 X28.661 Y192.857
G0 X30.266 Y195.573
G0 X31.773 Y197.635
G0 X33.292 Y199.402
G0 X34.33 Y200.455
G0 X35.506 Y201.467
G0 X37.238 Y202.638
G0 X38.431 Y203.265
G0 X40.368 Y204.027
G0 X41.663 Y204.381
G0 X43.724 Y204.705
G0 X45.077 Y204.766
G0 X47.153 Y204.636
G0 X47.899 Y204.506
G0 X49.579 Y204.12
G0 X49.6 Y202.992
G1 F2700 E82.17512
G1 F1800 X49.6 Y150.358 E88.47733
G0 F10500 X51.2 Y150.079
G1 F1800 X51.2 Y202.374 E94.73895
G0 F10500 X52.8 Y201.565
G1 F1800 X52.8 Y149.889 E100.92645
G0 F10500 X54.4 Y149.796
G1 F1800 X54.4 Y201.121 E107.07193
G0 F10500 X56 Y201.086
G1 F1800 X56 Y149.802 E113.21249
G0 F10500 X57.6 Y149.864
G1 F1800 X57.6 Y201.419 E119.38551
G0 F10500 X59.2 Y202.187
G1 F1800 X59.2 Y150.034 E125.63013
G0 F10500 X60.8 Y150.287
G1 F1800 X60.8 Y202.873 E131.92659
G0 F10500 X62.4 Y203.328
G1 F1800 X62.4 Y150.637 E138.23562
G0 F10500 X64 Y151.115
G1 F1800 X64 Y203.603 E144.52035
G0 F10500 X65.6 Y203.695
G1 F1800 X65.6 Y151.785 E150.73587
G0 F10500 X67.2 Y152.713
G1 F1800 X67.2 Y203.612 E156.83034
G0 F10500 X68.8 Y203.35
G1 F1800 X68.8 Y153.95 E162.74532
G0 F10500 X70.4 Y155.61
G1 F1800 X70.4 Y202.896 E168.40718
G0 F10500 X72 Y202.242
G1 F1800 X72 Y158.031 E173.70085
G1 F2700 E168.70085
G0 F10500 X73.187 Y157.998
G0 X73.973 Y159.929
G0 X74.185 Y160.678
G0 X74.567 Y162.345
G0 X73.6 Y163.188
G1 F2700 E173.70085
G1 F1800 X73.6 Y201.332 E178.26808
G0 F10500 X75.2 Y200.121
G1 F1800 X75.2 Y168.663 E182.03475
G0 F10500 X76.8 Y170.061
G1 F1800 X76.8 Y198.539 E185.44461
G0 F10500 X78.4 Y196.641
G1 F1800 X78.4 Y171.168 E188.49465
G0 F10500 X80 Y172.63
G1 F1800 X80 Y194.339 E191.09401
G0 F10500 X81.6 Y191.457
G1 F1800 X81.6 Y174.661 E193.10511
G0 F10500 X83.2 Y177.988
G1 F1800 X83.2 Y187.342 E194.22512
G1 F2700 E189.22512
G0 F300 X83.2 Y187.342 Z0.51
G0 F10500 X84.292 Y187.408
G0 X84.718 Y185.743
G0 X84.995 Y183.66
G0 X84.994 Y181.572
G0 X84.845 Y180.225
G0 X84.389 Y178.191
G0 X83.951 Y176.91
G0 X83.24 Y175.398
G0 X82.49 Y174.076
G0 X81.583 Y174.633
;TIME_ELAPSED:66.652094
;LAYER:-8
M140 S110
;TYPE:SUPPORT
G1 F2700 E194.22512
G1 F1800 X81.484 Y174.482 E194.23413
G1 X80.977 Y173.773 E194.27762
G1 X80.85 Y173.61 E194.28793
G1 X80.284 Y172.932 E194.33199
G1 X80.175 Y172.81 E194.34015
G1 X79.57 Y172.181 E194.38369
G1 X79.417 Y172.037 E194.39417
G1 X78.756 Y171.445 E194.43844
G1 X77.898 Y170.775 E194.49276
G1 X77.024 Y170.194 E194.54511
G1 X76.603 Y169.941 E194.56962
G1 X82.04 Y175.378 E194.95323
G1 X82.054 Y175.4 E194.95453
G1 X82.129 Y175.537 E194.96232
G1 X82.539 Y176.332 E195.00695
G1 X82.618 Y176.499 E195.01617
G1 X82.966 Y177.316 E195.06047
G1 X83.027 Y177.473 E195.06887
G1 X83.182 Y177.934 E195.09314
G1 X55.054 Y149.806 E197.07772
G1 X54.597 Y149.793 E197.10053
G1 X54.423 Y149.794 E197.10921
G1 X53.66 Y149.826 E197.14731
G1 X83.695 Y179.861 E199.26644
G1 X83.793 Y180.391 E199.29333
G1 X83.819 Y180.566 E199.30216
G1 X83.918 Y181.464 E199.34723
G1 X83.922 Y181.502 E199.34914
G1 X52.353 Y149.934 E201.57646
G1 X51.823 Y149.991 E201.60306
G1 X51.098 Y150.093 E201.63959
G1 X83.955 Y182.95 E203.95782
G1 X83.932 Y183.593 E203.98992
G1 X83.922 Y183.744 E203.99747
G1 X83.862 Y184.271 E204.02394
G1 X49.89 Y150.299 E206.42084
G1 X49.776 Y150.319 E206.42662
G1 X48.723 Y150.546 E206.48036
G1 X83.677 Y185.5 E208.94655
G1 X83.652 Y185.636 E208.95345
G1 X83.626 Y185.748 E208.95919
G1 X83.393 Y186.63 E209.0047
G1 X47.607 Y150.844 E211.5296
G1 X47.33 Y150.918 E211.5439
G1 X47.204 Y150.955 E211.55045
G1 X46.54 Y151.192 E211.58563
G1 X83.076 Y187.728 E214.16344
G1 X82.896 Y188.289 E214.19283
G1 X82.717 Y188.783 E214.21905
G1 X45.541 Y151.607 E216.84201
G1 X45.401 Y151.668 E216.84963
G1 X45.227 Y151.751 E216.85925
G1 X44.6 Y152.08 E216.89458
G1 X82.326 Y189.806 E219.55635
G1 X82.141 Y190.261 E219.58085
G1 X81.903 Y190.797 E219.61011
G1 X43.714 Y152.609 E222.30452
G1 X43.523 Y152.727 E222.31572
G1 X42.883 Y153.191 E222.35516
G1 X81.452 Y191.76 E225.07641
G1 X80.964 Y192.687 E225.12867
G1 X42.099 Y153.822 E227.87081
G1 X41.847 Y154.034 E227.88724
G1 X41.749 Y154.123 E227.89384
G1 X41.364 Y154.501 E227.92076
G1 X80.439 Y193.576 E230.67771
G1 X80.385 Y193.677 E230.68343
G1 X79.921 Y194.472 E230.72935
G1 X40.677 Y155.229 E233.49819
G1 X40.385 Y155.56 E233.52021
G1 X40.288 Y155.68 E233.52791
G1 X40.04 Y156.006 E233.54835
G1 X79.358 Y195.324 E236.32244
G1 X78.913 Y195.96 E236.36117
G1 X78.77 Y196.15 E236.37303
G1 X39.452 Y156.832 E239.14713
G1 X39.151 Y157.297 E239.17477
G1 X39.064 Y157.443 E239.18325
G1 X38.917 Y157.71 E239.19845
G1 X78.157 Y196.951 E241.96708
G1 X77.665 Y197.559 E242.0061
G1 X77.519 Y197.727 E242.01721
G1 X38.434 Y158.642 E244.77486
G1 X38.178 Y159.201 E244.80554
G1 X38.013 Y159.635 E244.8287
G1 X76.856 Y198.478 E247.56929
G1 X76.291 Y199.08 E247.61048
G1 X76.167 Y199.204 E247.61922
G1 X37.652 Y160.688 E250.3367
G1 X37.492 Y161.241 E250.36542
G1 X37.365 Y161.816 E250.3948
G1 X75.452 Y199.903 E253.08204
G1 X74.719 Y200.531 E253.1302
G1 X74.688 Y200.553 E253.1321
G1 X37.157 Y163.022 E255.78011
G1 X37.118 Y163.3 E255.79412
G1 X37.101 Y163.48 E255.80314
G1 X37.046 Y164.325 E255.84538
G1 X73.874 Y201.153 E258.4438
G1 X73.85 Y201.171 E258.44529
