;FLAVOR:Marlin
;TIME:3403
;Filament used: 1.28399m
;Layer height: 0.1
;MINX:77.561
;MINY:84.061
;MINZ:0.3
;MAXX:142.439
;MAXY:135.939
;MAXZ:7.8
;Generated with Cura_SteamEngine 4.5.0
M140 S110
M105
M190 S110
M104 S260
M105
M109 S260
M82 ;absolute extrusion mode
M201 X500.00 Y500.00 Z100.00 E5000.00 ;Setup machine max acceleration
M203 X500.00 Y500.00 Z10.00 E50.00 ;Setup machine max feedrate
M204 P500.00 R1000.00 T500.00 ;Setup Print/Retract/Travel acceleration
M205 X8.00 Y8.00 Z0.40 E5.00 ;Setup Jerk
M220 S100 ;Reset Feedrate
M221 S100 ;Reset Flowrate

G28 ;Home

G92 E0 ;Reset Extruder
G1 Z2.0 F3000 ;Move Z Axis up
G1 X10.1 Y20 Z0.28 F5000.0 ;Move to start position
G1 X10.1 Y200.0 Z0.28 F1500.0 E15 ;Draw the first line
G1 X10.4 Y200.0 Z0.28 F5000.0 ;Move to side a little
G1 X10.4 Y20 Z0.28 F1500.0 E30 ;Draw the second line
G92 E0 ;Reset Extruder
G1 Z2.0 F3000 ;Move Z Axis up

G92 E0
G92 E0
;LAYER_COUNT:76
;LAYER:0
M107
G0 F6000 X81.906 Y87.626 Z0.3
;TYPE:SKIRT
G1 F1800 X82.429 Y87.182 E0.03423
G1 X82.779 Y86.904 E0.05653
G1 X83.244 Y86.553 E0.08559
G1 X84.022 Y86.03 E0.13236
G1 X84.842 Y85.575 E0.17915
G1 X85.349 Y85.337 E0.20709
G1 X85.787 Y85.145 E0.23095
G1 X86.273 Y84.945 E0.25717
G1 X87.158 Y84.635 E0.30395
G1 X88.067 Y84.402 E0.35077
G1 X88.697 Y84.287 E0.38272
G1 X89.185 Y84.213 E0.40734
G1 X90.137 Y84.111 E0.45511
G1 X90.578 Y84.083 E0.47716
G1 X91.275 Y84.061 E0.51195
G1 X128.451 Y84.061 E2.36667
G1 X129.149 Y84.071 E2.40149
G1 X130.006 Y84.117 E2.44431
G1 X130.211 Y84.136 E2.45458
G1 X130.82 Y84.21 E2.48519
G1 X131.222 Y84.27 E2.50547
G1 X132.143 Y84.447 E2.55226
G1 X133.045 Y84.703 E2.59903
G1 X133.605 Y84.905 E2.62874
G1 X134.078 Y85.09 E2.65407
G1 X134.936 Y85.468 E2.70085
G1 X135.759 Y85.918 E2.74765
G1 X136.156 Y86.17 E2.77111
G1 X136.653 Y86.5 E2.80087
G1 X137.37 Y87.019 E2.84503
G1 X137.506 Y87.126 E2.85366
G1 X138.217 Y87.737 E2.90043
G1 X138.874 Y88.406 E2.94721
G1 X139.318 Y88.93 E2.98148
G1 X139.592 Y89.275 E3.00346
G1 X139.931 Y89.723 E3.03149
G1 X140.457 Y90.5 E3.0783
G1 X140.914 Y91.319 E3.12509
G1 X141.168 Y91.859 E3.15486
G1 X141.356 Y92.289 E3.17828
G1 X141.55 Y92.761 E3.20373
G1 X141.861 Y93.646 E3.25053
G1 X142.095 Y94.554 E3.29731
G1 X142.213 Y95.197 E3.32993
G1 X142.287 Y95.685 E3.35455
G1 X142.389 Y96.637 E3.40232
G1 X142.417 Y97.078 E3.42437
G1 X142.439 Y97.775 E3.45916
G1 X142.439 Y121.914 E4.66346
G1 X142.429 Y122.641 E4.69973
G1 X142.384 Y123.5 E4.74265
G1 X142.365 Y123.706 E4.75297
G1 X142.293 Y124.301 E4.78287
G1 X142.234 Y124.701 E4.80304
G1 X142.058 Y125.622 E4.84982
G1 X141.804 Y126.525 E4.89662
G1 X141.595 Y127.107 E4.92747
G1 X141.409 Y127.582 E4.95292
G1 X141.03 Y128.44 E4.99972
G1 X140.33 Y129.656 E5.06972
G1 X140 Y130.153 E5.09948
G1 X139.481 Y130.87 E5.14364
G1 X139.374 Y131.006 E5.15227
G1 X138.763 Y131.717 E5.19904
G1 X138.094 Y132.374 E5.24582
G1 X137.576 Y132.813 E5.2797
G1 X137.234 Y133.085 E5.3015
G1 X136.76 Y133.444 E5.33117
G1 X135.982 Y133.967 E5.37794
G1 X135.162 Y134.423 E5.42475
G1 X134.651 Y134.663 E5.45291
G1 X134.213 Y134.855 E5.47677
G1 X133.727 Y135.055 E5.50299
G1 X132.842 Y135.365 E5.54977
G1 X131.933 Y135.598 E5.59659
G1 X131.303 Y135.713 E5.62854
G1 X130.815 Y135.787 E5.65316
G1 X129.863 Y135.889 E5.70093
G1 X129.422 Y135.917 E5.72298
G1 X128.725 Y135.939 E5.75777
G1 X91.549 Y135.939 E7.61249
G1 X90.852 Y135.929 E7.64726
G1 X90 Y135.884 E7.68983
G1 X89.794 Y135.865 E7.70015
G1 X89.18 Y135.79 E7.73101
G1 X88.778 Y135.73 E7.75129
G1 X87.857 Y135.553 E7.79808
G1 X86.955 Y135.297 E7.84486
G1 X86.395 Y135.095 E7.87456
G1 X85.922 Y134.91 E7.8999
G1 X85.064 Y134.532 E7.94667
G1 X84.241 Y134.082 E7.99347
G1 X83.844 Y133.83 E8.01693
G1 X83.347 Y133.5 E8.04669
G1 X82.63 Y132.981 E8.09085
G1 X82.494 Y132.874 E8.09948
G1 X81.783 Y132.263 E8.14625
G1 X81.126 Y131.594 E8.19303
G1 X80.681 Y131.068 E8.22741
G1 X80.396 Y130.709 E8.25028
G1 X80.049 Y130.25 E8.27898
G1 X79.526 Y129.472 E8.32575
G1 X79.071 Y128.651 E8.37258
G1 X78.832 Y128.139 E8.40077
G1 X78.641 Y127.702 E8.42457
G1 X78.439 Y127.212 E8.45101
G1 X78.13 Y126.327 E8.49777
G1 X77.898 Y125.418 E8.54458
G1 X77.785 Y124.788 E8.57651
G1 X77.712 Y124.303 E8.60098
G1 X77.611 Y123.363 E8.64815
G1 X77.583 Y122.922 E8.67019
G1 X77.561 Y122.225 E8.70498
G1 X77.561 Y98.015 E9.91283
G1 X77.571 Y97.346 E9.94621
G1 X77.616 Y96.5 E9.98847
G1 X77.635 Y96.294 E9.99879
G1 X77.707 Y95.699 E10.02869
G1 X77.766 Y95.299 E10.04887
G1 X77.942 Y94.378 E10.09565
G1 X78.196 Y93.475 E10.14245
G1 X78.405 Y92.893 E10.1733
G1 X78.591 Y92.418 E10.19875
G1 X78.97 Y91.56 E10.24554
G1 X79.67 Y90.344 E10.31554
G1 X80 Y89.847 E10.34531
G1 X80.519 Y89.13 E10.38947
G1 X80.626 Y88.994 E10.3981
G1 X81.237 Y88.283 E10.44487
G1 X81.906 Y87.626 E10.49165
G0 F6000 X82.199 Y87.9
G1 F1800 X82.678 Y87.496 E10.52291
G1 X83.028 Y87.218 E10.54521
G1 X83.481 Y86.875 E10.57356
G1 X84.246 Y86.362 E10.61951
G1 X85.052 Y85.918 E10.66542
G1 X85.509 Y85.704 E10.6906
G1 X85.947 Y85.512 E10.71446
G1 X86.421 Y85.316 E10.74005
G1 X87.29 Y85.013 E10.78596
G1 X88.183 Y84.786 E10.83193
G1 X88.757 Y84.683 E10.86103
G1 X89.245 Y84.609 E10.88565
G1 X90.162 Y84.51 E10.93166
G1 X90.603 Y84.482 E10.95371
G1 X91.275 Y84.461 E10.98725
G1 X128.445 Y84.461 E12.84167
G1 X129.143 Y84.471 E12.8765
G1 X129.969 Y84.515 E12.91777
G1 X130.174 Y84.534 E12.92804
G1 X130.761 Y84.605 E12.95754
G1 X131.163 Y84.665 E12.97782
G1 X132.067 Y84.84 E13.02375
G1 X132.952 Y85.094 E13.06969
G1 X133.459 Y85.277 E13.09658
G1 X133.932 Y85.462 E13.12192
G1 X134.774 Y85.834 E13.16784
G1 X135.934 Y86.503 E13.23465
G1 X136.431 Y86.833 E13.26441
G1 X137.122 Y87.333 E13.30697
G1 X137.258 Y87.44 E13.3156
G1 X137.956 Y88.04 E13.36152
G1 X138.6 Y88.699 E13.40749
G1 X139.005 Y89.179 E13.43882
G1 X139.279 Y89.524 E13.4608
G1 X139.61 Y89.961 E13.48815
G1 X140.125 Y90.724 E13.53408
G1 X140.572 Y91.529 E13.58002
G1 X140.801 Y92.02 E13.60705
G1 X141.179 Y92.909 E13.65524
G1 X141.483 Y93.778 E13.70117
G1 X141.711 Y94.67 E13.74711
G1 X141.817 Y95.257 E13.77687
G1 X141.891 Y95.745 E13.80149
G1 X141.99 Y96.662 E13.84751
G1 X142.018 Y97.103 E13.86955
G1 X142.039 Y97.775 E13.90309
G1 X142.039 Y121.909 E15.10714
G1 X142.029 Y122.636 E15.14342
G1 X141.985 Y123.464 E15.18478
G1 X141.966 Y123.67 E15.19511
G1 X141.898 Y124.243 E15.22389
G1 X141.839 Y124.643 E15.24407
G1 X141.665 Y125.547 E15.28999
G1 X141.413 Y126.432 E15.3359
G1 X141.222 Y126.961 E15.36396
G1 X141.036 Y127.436 E15.38941
G1 X140.664 Y128.278 E15.43534
G1 X139.997 Y129.434 E15.50192
G1 X139.667 Y129.931 E15.53168
G1 X139.167 Y130.622 E15.57424
G1 X139.06 Y130.758 E15.58287
G1 X138.46 Y131.456 E15.62879
G1 X137.801 Y132.1 E15.67476
G1 X137.327 Y132.5 E15.7057
G1 X136.985 Y132.772 E15.7275
G1 X136.523 Y133.122 E15.75642
G1 X135.759 Y133.635 E15.80233
G1 X134.953 Y134.08 E15.84827
G1 X134.491 Y134.296 E15.87371
G1 X134.053 Y134.488 E15.89757
G1 X133.579 Y134.684 E15.92316
G1 X132.71 Y134.987 E15.96907
G1 X131.817 Y135.214 E16.01504
G1 X131.243 Y135.317 E16.04414
G1 X130.755 Y135.391 E16.06876
G1 X129.838 Y135.49 E16.11478
G1 X129.397 Y135.518 E16.13682
G1 X128.725 Y135.539 E16.17037
G1 X91.555 Y135.539 E18.02478
G1 X90.858 Y135.529 E18.05956
G1 X90.036 Y135.485 E18.10063
G1 X89.83 Y135.466 E18.11095
G1 X89.239 Y135.395 E18.14065
G1 X88.837 Y135.335 E18.16093
G1 X87.933 Y135.16 E18.20686
G1 X87.048 Y134.906 E18.2528
G1 X86.541 Y134.723 E18.27969
G1 X86.068 Y134.538 E18.30503
G1 X85.226 Y134.166 E18.35095
G1 X84.066 Y133.497 E18.41776
G1 X83.569 Y133.167 E18.44753
G1 X82.878 Y132.667 E18.49008
G1 X82.742 Y132.56 E18.49871
G1 X82.044 Y131.96 E18.54463
G1 X81.4 Y131.301 E18.5906
G1 X80.994 Y130.82 E18.62201
G1 X80.709 Y130.461 E18.64487
G1 X80.371 Y130.013 E18.67287
G1 X79.858 Y129.249 E18.71878
G1 X79.414 Y128.442 E18.76474
G1 X79.198 Y127.979 E18.79023
G1 X79.007 Y127.542 E18.81402
G1 X78.811 Y127.064 E18.83979
G1 X78.508 Y126.195 E18.88571
G1 X78.283 Y125.302 E18.93165
G1 X78.18 Y124.729 E18.9607
G1 X78.107 Y124.244 E18.98517
G1 X78.01 Y123.338 E19.03063
G1 X77.982 Y122.897 E19.05267
G1 X77.961 Y122.225 E19.08621
G1 X77.961 Y98.021 E20.29376
G1 X77.971 Y97.352 E20.32714
G1 X78.015 Y96.536 E20.36791
G1 X78.034 Y96.33 E20.37823
G1 X78.102 Y95.757 E20.40702
G1 X78.161 Y95.357 E20.42719
G1 X78.335 Y94.453 E20.47312
G1 X78.587 Y93.568 E20.51902
G1 X78.778 Y93.039 E20.54708
G1 X78.964 Y92.564 E20.57253
G1 X79.336 Y91.722 E20.61846
G1 X80.003 Y90.566 E20.68504
G1 X80.333 Y90.069 E20.71481
G1 X80.833 Y89.378 E20.75736
G1 X80.94 Y89.242 E20.76599
G1 X81.54 Y88.544 E20.81191
G1 X82.199 Y87.9 E20.85788
G0 F6000 X82.491 Y88.175
G1 F1800 X82.927 Y87.809 E20.88628
G1 X83.277 Y87.531 E20.90858
G1 X83.718 Y87.198 E20.93615
G1 X84.469 Y86.695 E20.98125
G1 X85.26 Y86.261 E21.02626
G1 X85.67 Y86.07 E21.04883
G1 X86.108 Y85.878 E21.07268
G1 X86.569 Y85.688 E21.09756
G1 X87.422 Y85.391 E21.14262
G1 X88.298 Y85.171 E21.18768
G1 X88.817 Y85.078 E21.21399
G1 X89.305 Y85.004 E21.23861
G1 X90.188 Y84.909 E21.28292
G1 X90.629 Y84.881 E21.30497
G1 X91.275 Y84.861 E21.33721
G1 X128.439 Y84.861 E23.19133
G1 X129.137 Y84.871 E23.22616
G1 X129.932 Y84.914 E23.26588
G1 X130.137 Y84.933 E23.27615
G1 X130.702 Y85.001 E23.30454
G1 X131.104 Y85.061 E23.32482
G1 X131.99 Y85.233 E23.36985
G1 X132.858 Y85.484 E23.41493
G1 X133.313 Y85.65 E23.43909
G1 X133.786 Y85.835 E23.46443
G1 X134.612 Y86.201 E23.5095
G1 X135.713 Y86.837 E23.57294
G1 X136.21 Y87.167 E23.6027
G1 X136.875 Y87.648 E23.64365
G1 X137.011 Y87.755 E23.65228
G1 X137.695 Y88.344 E23.69731
G1 X138.325 Y88.991 E23.74237
G1 X138.691 Y89.427 E23.77077
G1 X138.965 Y89.772 E23.79275
G1 X139.288 Y90.199 E23.81946
G1 X139.793 Y90.948 E23.86453
G1 X140.229 Y91.738 E23.90954
G1 X140.435 Y92.18 E23.93387
G1 X140.623 Y92.61 E23.95729
G1 X140.807 Y93.058 E23.98145
G1 X141.105 Y93.91 E24.02648
G1 X141.327 Y94.786 E24.07157
G1 X141.422 Y95.317 E24.09848
G1 X141.496 Y95.805 E24.1231
G1 X141.591 Y96.688 E24.16741
G1 X141.619 Y97.129 E24.18946
G1 X141.639 Y97.775 E24.2217
G1 X141.639 Y121.903 E25.42545
G1 X141.629 Y122.63 E25.46173
G1 X141.587 Y123.427 E25.50154
G1 X141.568 Y123.633 E25.51186
G1 X141.502 Y124.184 E25.53955
G1 X141.443 Y124.584 E25.55972
G1 X141.272 Y125.471 E25.60479
G1 X141.023 Y126.339 E25.64984
G1 X140.85 Y126.815 E25.67511
G1 X140.664 Y127.29 E25.70056
G1 X140.298 Y128.116 E25.74563
G1 X139.663 Y129.213 E25.80887
G1 X139.333 Y129.71 E25.83863
G1 X138.852 Y130.375 E25.87958
G1 X138.745 Y130.511 E25.88821
G1 X138.156 Y131.195 E25.93325
G1 X137.509 Y131.825 E25.9783
G1 X137.078 Y132.187 E26.00638
G1 X136.736 Y132.459 E26.02818
G1 X136.286 Y132.8 E26.05635
G1 X135.536 Y133.303 E26.1014
G1 X134.744 Y133.737 E26.14646
G1 X134.33 Y133.93 E26.16925
G1 X133.892 Y134.122 E26.19311
G1 X133.431 Y134.312 E26.21798
G1 X132.578 Y134.609 E26.26305
G1 X131.702 Y134.829 E26.30811
G1 X131.183 Y134.922 E26.33441
G1 X130.695 Y134.996 E26.35904
G1 X129.812 Y135.091 E26.40334
G1 X129.371 Y135.119 E26.42539
G1 X128.725 Y135.139 E26.45763
G1 X91.561 Y135.139 E28.31175
G1 X90.864 Y135.129 E28.34653
G1 X90.073 Y135.087 E28.38605
G1 X89.867 Y135.068 E28.39637
G1 X89.298 Y134.999 E28.42497
G1 X88.896 Y134.939 E28.44524
G1 X88.01 Y134.767 E28.49027
G1 X87.142 Y134.516 E28.53535
G1 X86.687 Y134.35 E28.55951
G1 X86.214 Y134.165 E28.58485
G1 X85.388 Y133.799 E28.62993
G1 X84.287 Y133.163 E28.69336
G1 X83.79 Y132.833 E28.72313
G1 X83.125 Y132.352 E28.76407
G1 X82.989 Y132.245 E28.77271
G1 X82.305 Y131.656 E28.81774
G1 X81.675 Y131.009 E28.86279
G1 X81.307 Y130.571 E28.89133
G1 X81.022 Y130.212 E28.9142
G1 X80.693 Y129.776 E28.94145
G1 X80.191 Y129.026 E28.98648
G1 X79.757 Y128.234 E29.03153
G1 X79.565 Y127.819 E29.05435
G1 X79.374 Y127.382 E29.07814
G1 X79.183 Y126.917 E29.10322
G1 X78.887 Y126.064 E29.14827
G1 X78.667 Y125.187 E29.19338
G1 X78.576 Y124.669 E29.21961
G1 X78.503 Y124.184 E29.24408
G1 X78.409 Y123.312 E29.28784
G1 X78.381 Y122.871 E29.30989
G1 X78.361 Y122.225 E29.34213
G1 X78.361 Y98.027 E30.54937
G1 X78.371 Y97.358 E30.58275
G1 X78.413 Y96.573 E30.62197
G1 X78.432 Y96.367 E30.63229
G1 X78.498 Y95.816 E30.65998
G1 X78.557 Y95.416 E30.68015
G1 X78.728 Y94.529 E30.72522
G1 X78.977 Y93.661 E30.77027
G1 X79.15 Y93.185 E30.79554
G1 X79.336 Y92.71 E30.82099
G1 X79.702 Y91.884 E30.86606
G1 X80.337 Y90.787 E30.9293
G1 X80.667 Y90.29 E30.95906
G1 X81.148 Y89.625 E31.00001
G1 X81.255 Y89.489 E31.00864
G1 X81.844 Y88.805 E31.05368
G1 X82.491 Y88.175 E31.09873
;MESH:case-cam2.stl
G0 F6000 X90.889 Y94.405
G0 X91.017 Y95.379
G0 X129.039 Y95.924
G0 X129.169 Y95.946
G0 X130.339 Y96.259
;TYPE:WALL-INNER
G1 F1200 X130.29 Y96.21 E31.10219
G1 X130.24 Y96.16 E31.10571
G1 X130.297 Y96.203 E31.10578
G1 X130.339 Y96.259 E31.10587
G0 F6000 X130.563 Y96.55
G1 F1200 X130.59 Y96.585 E31.10807
G1 X130.634 Y96.69 E31.11375
G1 X130.583 Y96.589 E31.11381
G1 X130.563 Y96.55
G0 F6000 X129.963 Y95.947
G1 F1200 X129.911 Y95.92 E31.11673
G1 X129.798 Y95.861 E31.12309
G1 X129.915 Y95.91 E31.12312
G1 X129.963 Y95.947 E31.12321
G0 F6000 X129.497 Y95.736
G1 F1200 X129.476 Y95.733 E31.12427
G1 X129.338 Y95.709 E31.13126
G1 X129.476 Y95.728 E31.13128
G1 X129.497 Y95.736 E31.13131
G0 F6000 X130.281 Y96.57
G0 X130.509 Y97.023
G0 X130.548 Y97.277
G0 X130.79 Y122.84
G1 F1200 X130.772 Y122.976 E31.13815
G1 X130.764 Y122.997 E31.13927
G1 X130.767 Y122.976
G1 X130.79 Y122.84 E31.13929
G0 F6000 X130.639 Y123.298
G1 F1200 X130.59 Y123.415 E31.14562
G1 X130.553 Y123.463 E31.14864
G1 X130.58 Y123.411
G1 X130.639 Y123.298 E31.14872
G0 F6000 X130.34 Y123.74
G1 F1200 X130.297 Y123.797 E31.15229
G1 X130.243 Y123.838 E31.15567
G1 X130.29 Y123.791 E31.15568
G1 X130.34 Y123.74 E31.15572
G0 F6000 X129.95 Y124.063
G1 F1200 X129.915 Y124.09 E31.15793
G1 X129.81 Y124.134 E31.16361
G1 X129.911 Y124.083 E31.16366
G1 X129.95 Y124.063
G0 F6000 X90.662 Y124.291
G1 F1200 X90.524 Y124.272 E31.17061
G1 X90.503 Y124.264 E31.17173
G1 X90.524 Y124.267
G1 X90.662 Y124.291 E31.1718
G0 F6000 X90.202 Y124.139
G1 F1200 X90.085 Y124.09 E31.17813
G1 X90.037 Y124.053 E31.18115
G1 X90.089 Y124.08
G1 X90.202 Y124.139 E31.18123
G0 F6000 X89.76 Y123.84
G1 F1200 X89.703 Y123.797 E31.1848
G1 X89.661 Y123.741 E31.18829
G1 X89.71 Y123.79 E31.18833
G1 X89.76 Y123.84 E31.18834
G0 F6000 X89.366 Y123.31
G1 F1200 X89.417 Y123.411 E31.19399
G1 X89.437 Y123.45 E31.19617
G1 X89.41 Y123.415
G1 X89.366 Y123.31 E31.19623
G0 F6000 X89.236 Y97.003
G1 F1200 X89.233 Y97.024 E31.19729
G1 X89.209 Y97.162 E31.20428
G1 X89.228 Y97.024 E31.2043
G1 X89.236 Y97.003 E31.20433
G0 F6000 X89.447 Y96.537
G1 F1200 X89.42 Y96.589 E31.20725
G1 X89.361 Y96.702 E31.21361
G1 X89.41 Y96.585 E31.21364
G1 X89.447 Y96.537 E31.21373
G0 F6000 X89.759 Y96.161
G1 F1200 X89.71 Y96.21 E31.21719
G1 X89.66 Y96.26 E31.22071
G1 X89.703 Y96.203 E31.22078
G1 X89.759 Y96.161 E31.22087
G0 F6000 X90.19 Y95.866
G1 F1200 X90.089 Y95.917 E31.22651
G1 X90.05 Y95.937 E31.2287
G1 X90.085 Y95.91
G1 X90.19 Y95.866 E31.22876
G0 F6000 X89.502 Y96.999
G0 X89.424 Y97.461
G0 X89.421 Y122.526
G0 X89.491 Y122.977
G0 X89.719 Y123.43
G0 X90.061 Y123.772
G0 X90.499 Y123.998
G0 X90.76 Y124.042
G0 X129.464 Y124.072
G0 X129.434 Y123.875
;TYPE:WALL-OUTER
G1 F1200 X129.848 Y123.667 E31.25187
G1 X130.158 Y123.356 E31.27378
G1 X130.365 Y122.957 E31.2962
G1 X130.437 Y122.528 E31.31791
G1 X130.44 Y121.418 E31.37328
G1 X130.44 Y97.485 E32.56731
G1 X130.375 Y97.066 E32.58846
G1 X130.167 Y96.652 E32.61158
G1 X129.856 Y96.342 E32.63348
G1 X129.457 Y96.135 E32.65591
G1 X129.028 Y96.063 E32.67761
G1 X90.985 Y96.06 E34.57558
G1 X90.566 Y96.125 E34.59674
