;FLAVOR:Marlin
;TIME:1841
;Filament used: 0.700048m
;Layer height: 0.1
;MINX:77.916
;MINY:84.417
;MINZ:0.3
;MAXX:142.084
;MAXY:135.583
;MAXZ:3.4
;Generated with Cura_SteamEngine 4.5.0
M140 S110
M105
M190 S110
M104 S260
M105
M109 S260
M82 ;absolute extrusion mode
M201 X500.00 Y500.00 Z100.00 E5000.00 ;Setup machine max acceleration
M203 X500.00 Y500.00 Z10.00 E50.00 ;Setup machine max feedrate
M204 P500.00 R1000.00 T500.00 ;Setup Print/Retract/Travel acceleration
M205 X8.00 Y8.00 Z0.40 E5.00 ;Setup Jerk
M220 S100 ;Reset Feedrate
M221 S100 ;Reset Flowrate

G28 ;Home

G92 E0 ;Reset Extruder
G1 Z2.0 F3000 ;Move Z Axis up
G1 X10.1 Y20 Z0.28 F5000.0 ;Move to start position
G1 X10.1 Y200.0 Z0.28 F1500.0 E15 ;Draw the first line
G1 X10.4 Y200.0 Z0.28 F5000.0 ;Move to side a little
G1 X10.4 Y20 Z0.28 F1500.0 E30 ;Draw the second line
G92 E0 ;Reset Extruder
G1 Z2.0 F3000 ;Move Z Axis up

G92 E0
G92 E0
;LAYER_COUNT:32
;LAYER:0
M107
G0 F6000 X81.906 Y88.126 Z0.3
;TYPE:SKIRT
G1 F1800 X82.961 Y87.207 E0.0698
G1 X83.233 Y86.999 E0.08689
G1 X84.002 Y86.462 E0.13368
G1 X84.813 Y85.992 E0.18044
G1 X85.403 Y85.705 E0.21318
G1 X85.801 Y85.526 E0.23495
G1 X86.672 Y85.178 E0.28174
G1 X87.915 Y84.823 E0.34624
G1 X88.394 Y84.716 E0.37072
G1 X89.566 Y84.52 E0.43001
G1 X89.771 Y84.497 E0.4403
G1 X90.622 Y84.434 E0.48287
G1 X90.915 Y84.424 E0.4975
G1 X91.289 Y84.418 E0.51616
G1 X128.448 Y84.417 E2.37003
G1 X129.149 Y84.427 E2.40501
G1 X130.369 Y84.513 E2.46602
G1 X130.9 Y84.58 E2.49272
G1 X131.825 Y84.736 E2.53952
G1 X132.733 Y84.972 E2.58633
G1 X133.774 Y85.348 E2.64155
G1 X134.237 Y85.542 E2.66659
G1 X135.086 Y85.941 E2.7134
G1 X135.829 Y86.367 E2.75612
G1 X136.022 Y86.488 E2.76749
G1 X136.932 Y87.125 E2.82291
G1 X137.094 Y87.251 E2.83315
G1 X137.664 Y87.726 E2.87016
G1 X137.831 Y87.875 E2.88133
G1 X138.504 Y88.529 E2.92815
G1 X139.295 Y89.466 E2.98932
G1 X139.548 Y89.802 E3.01031
G1 X140.08 Y90.575 E3.05712
G1 X140.544 Y91.39 E3.10391
G1 X140.78 Y91.878 E3.13096
G1 X141.003 Y92.37 E3.15791
G1 X141.353 Y93.24 E3.20469
G1 X141.628 Y94.136 E3.25145
G1 X141.859 Y95.259 E3.30865
G1 X141.948 Y95.845 E3.33822
G1 X142.049 Y96.778 E3.38504
G1 X142.071 Y97.277 E3.40996
G1 X142.084 Y98.046 E3.44833
G1 X142.082 Y121.952 E4.64101
G1 X142.072 Y122.652 E4.67593
G1 X141.986 Y123.872 E4.73695
G1 X141.919 Y124.403 E4.76365
G1 X141.763 Y125.328 E4.81045
G1 X141.527 Y126.236 E4.85726
G1 X141.2 Y127.158 E4.90606
G1 X141.003 Y127.644 E4.93223
G1 X140.614 Y128.498 E4.97905
G1 X140.154 Y129.315 E5.02582
G1 X139.778 Y129.883 E5.05981
G1 X139.324 Y130.502 E5.0981
G1 X139.125 Y130.754 E5.11412
G1 X138.513 Y131.465 E5.16093
G1 X137.842 Y132.121 E5.20774
G1 X137.455 Y132.453 E5.23318
G1 X137.148 Y132.704 E5.25297
G1 X136.397 Y133.266 E5.29976
G1 X135.969 Y133.545 E5.32525
G1 X135.749 Y133.681 E5.33816
G1 X134.931 Y134.139 E5.38493
G1 X134.263 Y134.45 E5.42169
G1 X133.985 Y134.568 E5.43676
G1 X133.107 Y134.897 E5.48353
G1 X132.085 Y135.177 E5.5364
G1 X131.606 Y135.284 E5.56089
G1 X130.434 Y135.48 E5.62017
G1 X130.229 Y135.503 E5.63046
G1 X129.378 Y135.566 E5.67304
G1 X129.085 Y135.576 E5.68766
G1 X128.711 Y135.582 E5.70632
G1 X91.553 Y135.583 E7.56014
G1 X90.85 Y135.573 E7.59522
G1 X89.913 Y135.52 E7.64204
G1 X89.399 Y135.456 E7.66788
G1 X88.837 Y135.373 E7.69623
G1 X87.916 Y135.197 E7.74301
G1 X87.013 Y134.942 E7.78982
G1 X86.274 Y134.67 E7.82911
G1 X85.903 Y134.518 E7.84911
G1 X85.071 Y134.136 E7.89478
G1 X84.881 Y134.039 E7.90543
G1 X84.065 Y133.577 E7.95221
G1 X83.019 Y132.838 E8.0161
G1 X82.756 Y132.628 E8.03289
G1 X82.049 Y132.012 E8.07968
G1 X81.226 Y131.141 E8.13946
G1 X80.861 Y130.71 E8.16764
G1 X80.286 Y129.969 E8.21443
G1 X79.678 Y129.012 E8.271
G1 X79.565 Y128.812 E8.28246
G1 X78.966 Y127.579 E8.35085
G1 X78.865 Y127.333 E8.36411
G1 X78.546 Y126.451 E8.41091
G1 X78.369 Y125.823 E8.44346
G1 X78.301 Y125.551 E8.45745
G1 X78.054 Y124.213 E8.52533
G1 X78.007 Y123.827 E8.54473
G1 X77.928 Y122.69 E8.60159
G1 X77.916 Y121.928 E8.63961
G1 X77.918 Y98.034 E9.83169
G1 X77.928 Y97.343 E9.86616
G1 X78.015 Y96.11 E9.92783
G1 X78.083 Y95.577 E9.95464
G1 X78.242 Y94.652 E10.00146
G1 X78.478 Y93.745 E10.04822
G1 X78.804 Y92.829 E10.09673
G1 X78.999 Y92.349 E10.12258
G1 X79.389 Y91.496 E10.16937
G1 X79.85 Y90.679 E10.21617
G1 X80.228 Y90.108 E10.25034
G1 X80.652 Y89.529 E10.28614
G1 X80.798 Y89.343 E10.29794
G1 X81.714 Y88.316 E10.36659
G1 X81.906 Y88.126 E10.38007
G0 F6000 X82.187 Y88.411
G1 F1800 X83.204 Y87.525 E10.44736
G1 X83.476 Y87.317 E10.46444
G1 X84.231 Y86.79 E10.51038
G1 X85.029 Y86.33 E10.55633
G1 X85.567 Y86.07 E10.58614
G1 X85.965 Y85.891 E10.60792
G1 X86.82 Y85.55 E10.65384
G1 X88.002 Y85.213 E10.71516
G1 X88.481 Y85.106 E10.73965
G1 X89.61 Y84.917 E10.79676
G1 X89.815 Y84.894 E10.80705
G1 X90.635 Y84.834 E10.84807
G1 X90.928 Y84.824 E10.86269
G1 X91.289 Y84.818 E10.88071
G1 X128.442 Y84.817 E12.73428
G1 X129.143 Y84.827 E12.76925
G1 X130.319 Y84.909 E12.82807
G1 X130.85 Y84.976 E12.85477
G1 X131.757 Y85.131 E12.90068
G1 X132.648 Y85.364 E12.94662
G1 X133.619 Y85.717 E12.99817
G1 X134.082 Y85.911 E13.02321
G1 X134.915 Y86.303 E13.06914
G1 X135.617 Y86.706 E13.10953
G1 X135.81 Y86.827 E13.12089
G1 X136.687 Y87.441 E13.1743
G1 X136.849 Y87.567 E13.18454
G1 X137.398 Y88.025 E13.22021
G1 X137.565 Y88.174 E13.23138
G1 X138.225 Y88.816 E13.27731
G1 X138.976 Y89.707 E13.33545
G1 X139.229 Y90.043 E13.35643
G1 X139.75 Y90.802 E13.40236
G1 X140.204 Y91.603 E13.4483
G1 X140.416 Y92.043 E13.47266
G1 X140.639 Y92.535 E13.49961
G1 X140.982 Y93.389 E13.54553
G1 X141.25 Y94.27 E13.59147
G1 X141.464 Y95.319 E13.64488
G1 X141.553 Y95.905 E13.67445
G1 X141.651 Y96.821 E13.72041
G1 X141.671 Y97.285 E13.74358
G1 X141.684 Y98.046 E13.78156
G1 X141.682 Y121.946 E14.97393
G1 X141.672 Y122.646 E15.00886
G1 X141.59 Y123.822 E15.06767
G1 X141.523 Y124.353 E15.09437
G1 X141.368 Y125.26 E15.14028
G1 X141.135 Y126.151 E15.18623
G1 X140.83 Y127.008 E15.23161
G1 X140.633 Y127.494 E15.25777
G1 X140.25 Y128.331 E15.30369
G1 X139.566 Y129.485 E15.37062
G1 X139.448 Y129.658 E15.38107
G1 X139.01 Y130.254 E15.41797
G1 X138.811 Y130.506 E15.43399
G1 X138.21 Y131.203 E15.4799
G1 X137.201 Y132.143 E15.5487
G1 X136.894 Y132.394 E15.56849
G1 X136.157 Y132.946 E15.61443
G1 X135.759 Y133.204 E15.63809
G1 X135.539 Y133.34 E15.65099
G1 X134.735 Y133.79 E15.69696
G1 X134.107 Y134.081 E15.73149
G1 X133.829 Y134.199 E15.74656
G1 X132.966 Y134.522 E15.79253
G1 X131.998 Y134.787 E15.8426
G1 X131.519 Y134.894 E15.86709
G1 X130.39 Y135.083 E15.9242
G1 X130.185 Y135.106 E15.93449
G1 X129.365 Y135.166 E15.97551
G1 X129.072 Y135.176 E15.99014
G1 X128.711 Y135.182 E16.00815
G1 X91.558 Y135.183 E17.86172
G1 X90.855 Y135.173 E17.8968
G1 X89.936 Y135.12 E17.94272
G1 X89.457 Y135.06 E17.96681
G1 X88.895 Y134.977 E17.99515
G1 X87.991 Y134.803 E18.04108
G1 X87.106 Y134.552 E18.08697
G1 X86.425 Y134.3 E18.1232
G1 X86.054 Y134.148 E18.1432
G1 X85.253 Y133.78 E18.18718
G1 X85.063 Y133.683 E18.19782
G1 X84.262 Y133.229 E18.24376
G1 X83.269 Y132.525 E18.30448
G1 X83.006 Y132.315 E18.32127
G1 X82.312 Y131.71 E18.36721
G1 X81.531 Y130.882 E18.42399
G1 X81.166 Y130.451 E18.45217
G1 X80.602 Y129.724 E18.49808
G1 X80.026 Y128.815 E18.55176
G1 X79.913 Y128.615 E18.56322
G1 X79.336 Y127.427 E18.62912
G1 X79.235 Y127.181 E18.64238
G1 X78.923 Y126.315 E18.68831
G1 X78.757 Y125.726 E18.71884
G1 X78.689 Y125.454 E18.73282
G1 X78.451 Y124.164 E18.79827
G1 X78.404 Y123.778 E18.81767
G1 X78.328 Y122.683 E18.87243
G1 X78.316 Y121.928 E18.9101
G1 X78.318 Y98.04 E20.10188
G1 X78.328 Y97.349 E20.13636
G1 X78.412 Y96.161 E20.19577
G1 X78.48 Y95.628 E20.22258
G1 X78.636 Y94.72 E20.26854
G1 X78.87 Y93.83 E20.31446
G1 X79.174 Y92.979 E20.35954
G1 X79.369 Y92.499 E20.38539
G1 X79.753 Y91.662 E20.43133
G1 X80.443 Y90.501 E20.49871
G1 X80.558 Y90.333 E20.50887
G1 X80.967 Y89.776 E20.54334
G1 X81.113 Y89.59 E20.55514
G1 X81.995 Y88.601 E20.62125
G1 X82.187 Y88.411 E20.63473
G0 F6000 X82.468 Y88.695
G1 F1800 X83.447 Y87.843 E20.69948
G1 X83.719 Y87.635 E20.71656
G1 X84.46 Y87.118 E20.76164
G1 X85.244 Y86.67 E20.80669
G1 X85.731 Y86.435 E20.83367
G1 X86.129 Y86.256 E20.85544
G1 X86.968 Y85.922 E20.90049
G1 X88.089 Y85.603 E20.95864
G1 X88.568 Y85.496 E20.98312
G1 X89.655 Y85.315 E21.0381
G1 X89.86 Y85.292 E21.04839
G1 X90.649 Y85.234 E21.08786
G1 X90.942 Y85.224 E21.10249
G1 X91.289 Y85.218 E21.1198
G1 X128.436 Y85.217 E22.97307
G1 X129.137 Y85.227 E23.00805
G1 X130.269 Y85.306 E23.06466
G1 X130.8 Y85.373 E23.09137
G1 X131.69 Y85.526 E23.13642
G1 X132.563 Y85.757 E23.18147
G1 X133.465 Y86.085 E23.22936
G1 X133.928 Y86.279 E23.2544
G1 X134.745 Y86.665 E23.29948
G1 X135.404 Y87.045 E23.33743
G1 X135.597 Y87.166 E23.3488
G1 X136.441 Y87.757 E23.4002
G1 X136.603 Y87.883 E23.41044
G1 X137.132 Y88.323 E23.44477
G1 X137.299 Y88.472 E23.45594
G1 X137.945 Y89.102 E23.50095
G1 X138.656 Y89.947 E23.55605
G1 X138.909 Y90.283 E23.57703
G1 X139.42 Y91.028 E23.6221
G1 X140.051 Y92.208 E23.68886
G1 X140.274 Y92.7 E23.71581
G1 X140.61 Y93.538 E23.76086
G1 X140.871 Y94.403 E23.80593
G1 X141.068 Y95.379 E23.85561
G1 X141.157 Y95.965 E23.88518
G1 X141.271 Y97.293 E23.95168
G1 X141.284 Y98.046 E23.98925
G1 X141.282 Y121.941 E25.18138
G1 X141.272 Y122.641 E25.2163
G1 X141.193 Y123.772 E25.27287
G1 X141.126 Y124.303 E25.29957
G1 X140.973 Y125.193 E25.34462
G1 X140.742 Y126.066 E25.38967
G1 X140.459 Y126.858 E25.43163
G1 X140.262 Y127.344 E25.4578
G1 X139.886 Y128.165 E25.50285
G1 X139.235 Y129.26 E25.5664
G1 X139.117 Y129.433 E25.57685
G1 X138.696 Y130.006 E25.61232
G1 X138.497 Y130.258 E25.62834
G1 X137.906 Y130.942 E25.67344
G1 X136.948 Y131.834 E25.73875
G1 X136.641 Y132.085 E25.75853
G1 X135.548 Y132.864 E25.82549
G1 X135.328 Y133 E25.8384
G1 X134.54 Y133.44 E25.88343
G1 X133.95 Y133.713 E25.91586
G1 X133.672 Y133.831 E25.93093
G1 X132.826 Y134.147 E25.97598
G1 X131.911 Y134.397 E26.0233
G1 X131.432 Y134.504 E26.04779
G1 X130.345 Y134.685 E26.10277
G1 X130.14 Y134.708 E26.11306
G1 X129.351 Y134.766 E26.15253
G1 X129.058 Y134.776 E26.16716
G1 X128.711 Y134.782 E26.18447
G1 X91.564 Y134.783 E28.03774
G1 X90.861 Y134.773 E28.07282
G1 X89.516 Y134.665 E28.14014
G1 X88.954 Y134.582 E28.16848
G1 X88.067 Y134.41 E28.21356
G1 X87.199 Y134.161 E28.25861
G1 X86.577 Y133.93 E28.29171
G1 X86.206 Y133.778 E28.31171
G1 X85.435 Y133.424 E28.35404
G1 X85.245 Y133.327 E28.36468
G1 X84.46 Y132.881 E28.40972
G1 X83.519 Y132.213 E28.4673
G1 X83.256 Y132.003 E28.48409
G1 X82.575 Y131.409 E28.52917
G1 X81.836 Y130.624 E28.58296
G1 X81.471 Y130.193 E28.61114
G1 X80.919 Y129.479 E28.65616
G1 X80.374 Y128.619 E28.70696
G1 X80.261 Y128.419 E28.71842
G1 X79.706 Y127.275 E28.78186
G1 X79.605 Y127.029 E28.79512
G1 X79.3 Y126.179 E28.84018
G1 X79.146 Y125.629 E28.86867
G1 X79.078 Y125.357 E28.88266
G1 X78.848 Y124.116 E28.94563
G1 X78.801 Y123.73 E28.96503
G1 X78.728 Y122.676 E29.01774
G1 X78.716 Y121.928 E29.05506
G1 X78.718 Y98.045 E30.24659
G1 X78.728 Y97.354 E30.28107
G1 X78.809 Y96.211 E30.33823
G1 X78.877 Y95.678 E30.36504
G1 X79.031 Y94.788 E30.4101
G1 X79.263 Y93.915 E30.45517
G1 X79.545 Y93.13 E30.49678
G1 X79.74 Y92.65 E30.52263
G1 X80.117 Y91.829 E30.5677
G1 X80.773 Y90.727 E30.63168
G1 X80.888 Y90.559 E30.64184
G1 X81.282 Y90.023 E30.67503
G1 X81.428 Y89.837 E30.68683
G1 X82.276 Y88.885 E30.75043
G1 X82.468 Y88.695 E30.76391
;MESH:lid-cam2.stl
G0 F6000 X88.698 Y96.012
G0 X89.48 Y96.611
G0 X90.667 Y96.238
G0 X91.05 Y96.188
G0 X92.631 Y96.215
G0 X91.575 Y98.695
G0 X92.601 Y100.402
G0 X92.211 Y101.927
G0 X92.321 Y102.471
G0 X92.569 Y102.844
G0 X93.633 Y103.616
;TYPE:WALL-INNER
G1 F1200 X94.279 Y103.487 E30.79677
G1 X94.827 Y103.121 E30.82965
G1 X95.193 Y102.573 E30.86253
G1 X95.322 Y101.927 E30.89539
G1 X95.193 Y101.281 E30.92826
G1 X95.031 Y101.039 E30.94279
G1 X94.827 Y100.733 E30.96114
G1 X94.819 Y100.728 E30.96161
G1 X95.187 Y100.728 E30.97199
G1 X104.709 Y100.728 E31.44704
G1 X104.765 Y100.728 E31.44983
G1 X105.206 Y100.728 E31.47184
G1 X105.421 Y100.728 E31.48256
G1 X105.206 Y100.771 E31.48329
G1 X104.765 Y101.067 E31.49769
G1 X104.734 Y101.113 E31.50028
G1 X104.504 Y101.456 E31.52088
G1 X104.387 Y101.909 E31.54422
G1 X104.377 Y117.728 E32.33344
G1 X104.455 Y118.132 E32.35396
G1 X104.702 Y118.543 E32.37789
G1 X104.726 Y118.584 E32.38026
G1 X104.873 Y118.707 E32.38982
G1 X105.204 Y118.928 E32.40967
G1 X104.873 Y118.928 E32.41362
G1 X104.726 Y118.928 E32.41763
G1 X104.678 Y118.928 E32.41988
G1 X94.084 Y118.928 E32.94842
G1 X93.449 Y119.019 E32.98042
G1 X92.827 Y119.304 E33.01456
G1 X92.309 Y119.752 E33.04873
G1 X91.938 Y120.328 E33.08291
G1 X91.746 Y120.986 E33.1171
G1 X91.746 Y121.67 E33.15123
G1 X91.938 Y122.328 E33.18543
G1 X92.309 Y122.904 E33.21961
G1 X92.827 Y123.352 E33.25378
G1 X93.338 Y123.586 E33.28181
G1 X93.449 Y123.637 E33.28791
G1 X94.084 Y123.728 E33.31991
G1 X113.17 Y123.728 E34.27212
G1 X113.805 Y123.637 E34.30412
G1 X113.915 Y123.587 E34.31015
G1 X114.427 Y123.352 E34.33826
G1 X114.946 Y122.904 E34.37246
G1 X115.291 Y122.366 E34.40435
G1 X115.494 Y121.721 E34.43808
G1 X115.511 Y121.039 E34.47212
G1 X115.334 Y120.378 E34.50626
G1 X114.987 Y119.813 E34.53934
G1 X114.843 Y119.663 E34.54971
G1 X114.544 Y119.405 E34.56941
G1 X114.427 Y119.304 E34.57712
G1 X113.809 Y119.021 E34.61104
G1 X114.427 Y119.021 E34.62147
G1 X114.582 Y119.021 E34.62815
G1 X123.834 Y119.021 E35.08974
G1 X124.295 Y118.929 E35.11319
G1 X124.736 Y118.633 E35.13969
G1 X125.02 Y118.211 E35.16506
G1 X125.12 Y117.751 E35.18855
G1 X125.124 Y101.972 E35.97577
G1 X125.046 Y101.568 E35.9963
G1 X124.775 Y101.116 E36.02259
G1 X124.628 Y100.993 E36.03215
G1 X124.295 Y100.771 E36.05212
G1 X123.834 Y100.679 E36.07557
G1 X114.523 Y100.679 E36.5401
G1 X114.427 Y100.679 E36.54489
G1 X113.805 Y100.679 E36.57592
G1 X113.512 Y100.679 E36.59054
G1 X113.805 Y100.637 E36.59139
G1 X114.427 Y100.352 E36.6084
G1 X114.499 Y100.29 E36.61274
G1 X114.946 Y99.904 E36.64221
G1 X115.291 Y99.366 E36.67409
G1 X115.494 Y98.721 E36.70783
G1 X115.511 Y98.039 E36.74186
G1 X115.334 Y97.378 E36.776
G1 X114.987 Y96.813 E36.80908
G1 X114.843 Y96.663 E36.81946
G1 X114.539 Y96.401 E36.83948
G1 X114.427 Y96.304 E36.84687
G1 X113.787 Y96.016 E36.88188
G1 X114.427 Y96.016 E36.8929
G1 X114.576 Y96.016 E36.89937
G1 X128.965 Y96.016 E37.61724
G1 X129.353 Y96.068 E37.63677
G1 X129.743 Y96.229 E37.65782
G1 X130.046 Y96.463 E37.67692
G1 X130.281 Y96.767 E37.69609
G1 X130.426 Y97.116 E37.71494
G1 X130.484 Y97.537 E37.73614
G1 X130.483 Y122.463 E38.97971
G1 X130.43 Y122.879 E39.00063
G1 X130.275 Y123.25 E39.02069
G1 X130.048 Y123.546 E39.0393
G1 X129.736 Y123.783 E39.05885
G1 X129.379 Y123.928 E39.07807
G1 X128.96 Y123.983 E39.09915
G1 X113.926 Y123.983 E39.8492
G1 X113.805 Y123.983 E39.85485
G1 X113.17 Y123.983 E39.87869
G1 X94.084 Y123.983 E40.48724
G1 X93.449 Y123.982 E40.51133
G1 X93.326 Y123.982 E40.51707
G1 X91.058 Y123.981 E40.63022
G1 X91.027 Y123.97 E40.63186
G1 X90.613 Y123.916 E40.65269
G1 X90.257 Y123.771 E40.67186
G1 X89.952 Y123.536 E40.69107
G1 X89.72 Y123.236 E40.70999
G1 X89.574 Y122.882 E40.7291
G1 X89.516 Y122.463 E40.7502
G1 X89.517 Y97.537 E41.99377
G1 X89.57 Y97.122 E42.01464
G1 X89.726 Y96.75 E42.03476
G1 X89.962 Y96.448 E42.05388
G1 X90.266 Y96.216 E42.07296
G1 X90.621 Y96.072 E42.09208
G1 X91.04 Y96.017 E42.11316
G1 X92.676 Y96.018 E42.19478
G1 X92.827 Y96.018 E42.20231
G1 X93.449 Y96.019 E42.23334
G1 X92.827 Y96.304 E42.24705
G1 X92.713 Y96.402 E42.25355
G1 X92.309 Y96.752 E42.28022
G1 X91.938 Y97.328 E42.3144
G1 X91.746 Y97.986 E42.3486
G1 X91.746 Y98.67 E42.38272
