;FLAVOR:Marlin
;TIME:8679
;Filament used: 3.78601m
;Layer height: 0.1
;MINX:61.101
;MINY:81.736
;MINZ:0.36
;MAXX:158.898
;MAXY:138.246
;MAXZ:20.86
;Generated with Cura_SteamEngine 4.5.0
M140 S110
M105
M190 S110
M104 S260
M105
M109 S260
M82 ;absolute extrusion mode
M201 X500.00 Y500.00 Z100.00 E5000.00 ;Setup machine max acceleration
M203 X500.00 Y500.00 Z10.00 E50.00 ;Setup machine max feedrate
M204 P500.00 R1000.00 T500.00 ;Setup Print/Retract/Travel acceleration
M205 X8.00 Y8.00 Z0.40 E5.00 ;Setup Jerk
M220 S100 ;Reset Feedrate
M221 S100 ;Reset Flowrate

G28 ;Home

G92 E0 ;Reset Extruder
G1 Z2.0 F3000 ;Move Z Axis up
G1 X10.1 Y20 Z0.28 F5000.0 ;Move to start position
G1 X10.1 Y200.0 Z0.28 F1500.0 E15 ;Draw the first line
G1 X10.4 Y200.0 Z0.28 F5000.0 ;Move to side a little
G1 X10.4 Y20 Z0.28 F1500.0 E30 ;Draw the second line
G92 E0 ;Reset Extruder
G1 Z2.0 F3000 ;Move Z Axis up

G92 E0
G92 E0
G1 F2700 E-5
;LAYER_COUNT:198
;LAYER:-9
M107
G0 F9750 X75.348 Y86.233 Z0.36
;TYPE:SUPPORT-INTERFACE
G1 F2700 E0
G1 F1800 X75.464 Y86.137 E0.01803
G1 X76.176 Y85.587 E0.12575
G1 X76.335 Y85.474 E0.14911
G1 X77.073 Y84.984 E0.25518
G1 X77.199 Y84.908 E0.2728
G1 X77.993 Y84.462 E0.38184
G1 X78.143 Y84.384 E0.40209
G1 X78.958 Y84.001 E0.50991
G1 X79.101 Y83.941 E0.52848
G1 X79.96 Y83.612 E0.63862
G1 X80.11 Y83.56 E0.65763
G1 X80.96 Y83.305 E0.76388
G1 X81.133 Y83.259 E0.78532
G1 X82.028 Y83.058 E0.89515
G1 X82.158 Y83.035 E0.91096
G1 X83.063 Y82.901 E1.0205
G1 X83.232 Y82.883 E1.04085
G1 X84.305 Y82.808 E1.16964
G1 X84.81 Y82.8 E1.23012
G1 X104 Y82.801 E3.52786
G1 X105.124 Y82.846 E3.66255
G1 X106.041 Y82.948 E3.77303
G1 X106.216 Y82.973 E3.79419
G1 X107.105 Y83.137 E3.90244
G1 X107.228 Y83.165 E3.91754
G1 X108.122 Y83.399 E4.02819
G1 X108.737 Y83.584 E4.10509
G1 X108.741 Y83.572 E4.1066
G1 X108.919 Y83.621 E4.12871
G1 X109.596 Y83.715 E4.21055
G1 X110.278 Y83.724 E4.29221
G1 X110.956 Y83.647 E4.37392
G1 X111.554 Y83.503 E4.44757
G1 X112.235 Y83.298 E4.53272
G1 X112.384 Y83.259 E4.55116
G1 X113.281 Y83.058 E4.66123
G1 X113.411 Y83.035 E4.67704
G1 X114.316 Y82.901 E4.78658
G1 X114.485 Y82.883 E4.80693
G1 X115.558 Y82.808 E4.93572
G1 X116.063 Y82.8 E4.9962
G1 X135.253 Y82.801 E7.29394
G1 X136.377 Y82.846 E7.42863
G1 X137.294 Y82.948 E7.53911
G1 X137.469 Y82.973 E7.56027
G1 X138.358 Y83.137 E7.66852
G1 X138.481 Y83.165 E7.68362
G1 X139.375 Y83.399 E7.79427
G1 X139.538 Y83.448 E7.81465
G1 X140.38 Y83.735 E7.92116
G1 X140.546 Y83.798 E7.94242
G1 X141.349 Y84.139 E8.04688
G1 X141.538 Y84.227 E8.07185
G1 X142.449 Y84.701 E8.19481
G1 X143.228 Y85.176 E8.30405
G1 X143.379 Y85.276 E8.32574
G1 X144.093 Y85.787 E8.43087
G1 X144.241 Y85.9 E8.45317
G1 X144.932 Y86.476 E8.56088
G1 X145.045 Y86.577 E8.57903
G1 X145.694 Y87.202 E8.68691
G1 X145.814 Y87.327 E8.70766
G1 X146.417 Y87.998 E8.81568
G1 X146.513 Y88.114 E8.83371
G1 X147.072 Y88.838 E8.94323
G1 X147.166 Y88.969 E8.96253
G1 X147.666 Y89.723 E9.07086
G1 X147.742 Y89.849 E9.08848
G1 X148.188 Y90.643 E9.19752
G1 X148.266 Y90.793 E9.21777
G1 X148.649 Y91.608 E9.32559
G1 X148.709 Y91.751 E9.34416
G1 X149.033 Y92.596 E9.45252
G1 X149.09 Y92.762 E9.47353
G1 X149.133 Y92.903 E9.49118
G1 X149.367 Y93.531 E9.57143
G1 X149.685 Y94.135 E9.65316
G1 X150.076 Y94.695 E9.73494
G1 X150.532 Y95.197 E9.81614
G1 X150.865 Y95.495 E9.86965
G1 X151.642 Y96.135 E9.99018
G1 X151.917 Y96.388 E10.03493
G1 X152.891 Y97.362 E10.19986
G1 X153.155 Y97.655 E10.24708
G1 X154.099 Y98.805 E10.42523
G1 X154.316 Y99.101 E10.46917
G1 X155.138 Y100.338 E10.64701
G1 X155.31 Y100.627 E10.68727
G1 X155.985 Y101.893 E10.85906
G1 X156.135 Y102.213 E10.90138
G1 X156.727 Y103.646 E11.08703
G1 X156.834 Y103.951 E11.12573
G1 X157.267 Y105.394 E11.30612
G1 X157.355 Y105.764 E11.35166
G1 X157.604 Y107.016 E11.5045
G1 X157.666 Y107.443 E11.55617
G1 X157.818 Y108.982 E11.74134
G1 X157.833 Y109.351 E11.78556
G1 X157.831 Y110.708 E11.94804
G1 X157.813 Y111.079 E11.99251
G1 X157.663 Y112.597 E12.17516
G1 X157.606 Y112.967 E12.21998
G1 X157.327 Y114.36 E12.39009
G1 X157.23 Y114.739 E12.43693
G1 X156.817 Y116.1 E12.60723
G1 X156.687 Y116.461 E12.65317
G1 X156.135 Y117.792 E12.8257
G1 X155.957 Y118.161 E12.87476
G1 X155.273 Y119.438 E13.04822
G1 X155.074 Y119.764 E13.09395
G1 X154.294 Y120.931 E13.26202
G1 X154.054 Y121.251 E13.30991
G1 X153.121 Y122.385 E13.48574
G1 X152.896 Y122.63 E13.52557
G1 X151.898 Y123.631 E13.69482
G1 X151.611 Y123.89 E13.74111
G1 X150.858 Y124.51 E13.8579
G1 X150.368 Y124.968 E13.93821
G1 X149.932 Y125.494 E14.02002
G1 X149.563 Y126.074 E14.10233
G1 X149.193 Y126.916 E14.21245
G1 X148.915 Y127.73 E14.31544
G1 X148.849 Y127.904 E14.33772
G1 X148.511 Y128.699 E14.44116
G1 X148.43 Y128.874 E14.46425
G1 X147.949 Y129.799 E14.58909
G1 X147.474 Y130.578 E14.69833
G1 X147.374 Y130.729 E14.72002
G1 X146.863 Y131.443 E14.82515
G1 X146.75 Y131.591 E14.84745
G1 X146.174 Y132.282 E14.95516
G1 X146.073 Y132.395 E14.97331
G1 X145.448 Y133.044 E15.08119
G1 X145.323 Y133.164 E15.10194
G1 X144.653 Y133.766 E15.20979
G1 X144.536 Y133.863 E15.22798
G1 X143.824 Y134.413 E15.33571
G1 X143.665 Y134.526 E15.35907
G1 X142.927 Y135.016 E15.46514
G1 X142.801 Y135.092 E15.48276
G1 X142.007 Y135.538 E15.5918
G1 X141.856 Y135.616 E15.61215
G1 X141.042 Y135.999 E15.71986
G1 X140.899 Y136.059 E15.73843
G1 X140.04 Y136.388 E15.84857
G1 X139.89 Y136.44 E15.86758
G1 X139.04 Y136.695 E15.97384
G1 X138.867 Y136.741 E15.99527
G1 X137.972 Y136.942 E16.1051
G1 X137.842 Y136.965 E16.12091
G1 X136.937 Y137.099 E16.23046
G1 X136.769 Y137.117 E16.25069
G1 X135.695 Y137.192 E16.3796
G1 X135.19 Y137.2 E16.44007
G1 X116 Y137.199 E18.73781
G1 X114.876 Y137.154 E18.87251
G1 X113.959 Y137.052 E18.98298
G1 X113.784 Y137.027 E19.00415
G1 X112.895 Y136.863 E19.11239
G1 X112.772 Y136.835 E19.12749
G1 X111.878 Y136.601 E19.23814
G1 X111.263 Y136.416 E19.31504
G1 X111.259 Y136.428 E19.31656
G1 X111.081 Y136.379 E19.33866
G1 X110.404 Y136.285 E19.4205
G1 X109.722 Y136.276 E19.50217
G1 X109.044 Y136.353 E19.58387
G1 X108.446 Y136.497 E19.65752
G1 X107.767 Y136.701 E19.74241
G1 X107.616 Y136.741 E19.76112
G1 X106.719 Y136.942 E19.87118
G1 X106.589 Y136.965 E19.88699
G1 X105.684 Y137.099 E19.99653
G1 X105.516 Y137.117 E20.01676
G1 X104.442 Y137.192 E20.14567
G1 X103.937 Y137.2 E20.20615
G1 X84.747 Y137.199 E22.50389
G1 X83.623 Y137.154 E22.63858
G1 X82.706 Y137.052 E22.74906
G1 X82.531 Y137.027 E22.77023
G1 X81.642 Y136.863 E22.87847
G1 X81.519 Y136.835 E22.89357
G1 X80.625 Y136.601 E23.00422
G1 X80.462 Y136.552 E23.0246
G1 X79.62 Y136.265 E23.13112
G1 X79.454 Y136.202 E23.15238
G1 X78.651 Y135.861 E23.25683
G1 X78.462 Y135.773 E23.2818
G1 X77.551 Y135.299 E23.40476
G1 X76.772 Y134.824 E23.51401
G1 X76.621 Y134.724 E23.53569
G1 X75.907 Y134.213 E23.64082
G1 X75.759 Y134.1 E23.66312
G1 X75.068 Y133.524 E23.77083
G1 X74.955 Y133.423 E23.78898
G1 X74.306 Y132.798 E23.89686
G1 X74.186 Y132.673 E23.91761
G1 X73.583 Y132.002 E24.02563
G1 X73.486 Y131.884 E24.04392
G1 X72.928 Y131.162 E24.15318
G1 X72.824 Y131.015 E24.17474
G1 X72.331 Y130.272 E24.28151
G1 X72.258 Y130.151 E24.29843
G1 X71.806 Y129.346 E24.40897
G1 X71.734 Y129.207 E24.42771
G1 X71.351 Y128.391 E24.53565
G1 X71.286 Y128.237 E24.55566
G1 X70.962 Y127.39 E24.66424
G1 X70.871 Y127.107 E24.69984
G1 X70.638 Y126.48 E24.77993
G1 X70.322 Y125.874 E24.86176
G1 X69.931 Y125.314 E24.94354
G1 X69.476 Y124.811 E25.02475
G1 X69.141 Y124.511 E25.0786
G1 X68.337 Y123.847 E25.20345
G1 X68.077 Y123.607 E25.24582
G1 X67.079 Y122.606 E25.41507
G1 X66.83 Y122.328 E25.45975
G1 X65.882 Y121.171 E25.63885
G1 X65.684 Y120.899 E25.67914
G1 X64.856 Y119.652 E25.85837
G1 X64.686 Y119.366 E25.8982
G1 X64.01 Y118.097 E26.07036
G1 X63.862 Y117.779 E26.11236
G1 X63.27 Y116.345 E26.29812
G1 X63.163 Y116.039 E26.33693
G1 X62.727 Y114.578 E26.51949
G1 X62.645 Y114.236 E26.5616
G1 X62.391 Y112.956 E26.71785
G1 X62.334 Y112.559 E26.76588
G1 X62.183 Y111.014 E26.95175
G1 X62.168 Y110.659 E26.9943
G1 X62.168 Y109.268 E27.16085
G1 X62.187 Y108.9 E27.20497
G1 X62.332 Y107.435 E27.38124
G1 X62.384 Y107.083 E27.42385
G1 X62.668 Y105.659 E27.59771
G1 X62.756 Y105.311 E27.64069
G1 X63.181 Y103.902 E27.81691
G1 X63.322 Y103.52 E27.86566
G1 X63.88 Y102.173 E28.04024
G1 X64.035 Y101.853 E28.08281
G1 X64.719 Y100.578 E28.25606
G1 X64.932 Y100.229 E28.30501
G1 X65.71 Y99.062 E28.47295
G1 X65.952 Y98.741 E28.52108
G1 X66.885 Y97.608 E28.69682
G1 X67.138 Y97.333 E28.74157
G1 X68.135 Y96.338 E28.91022
G1 X68.403 Y96.097 E28.95338
G1 X69.147 Y95.484 E29.0688
G1 X69.636 Y95.026 E29.14903
G1 X70.071 Y94.5 E29.23075
G1 X70.44 Y93.919 E29.31317
G1 X70.808 Y93.081 E29.42275
G1 X71.085 Y92.27 E29.52537
G1 X71.148 Y92.104 E29.54663
G1 X71.489 Y91.301 E29.65109
G1 X71.57 Y91.126 E29.67418
G1 X72.051 Y90.201 E29.79901
G1 X72.526 Y89.422 E29.90826
G1 X72.626 Y89.271 E29.92994
G1 X73.137 Y88.557 E30.03508
G1 X73.25 Y88.409 E30.05737
G1 X73.826 Y87.718 E30.16508
G1 X73.927 Y87.605 E30.18323
G1 X74.552 Y86.956 E30.29112
G1 X74.677 Y86.836 E30.31186
G1 X75.348 Y86.233 E30.41988
G0 F9750 X75.2 Y86.366
G1 F1800 X75.2 Y133.634 E36.07959
G0 F9750 X76.8 Y134.841
G1 F1800 X76.8 Y85.165 E42.02762
G0 F9750 X78.4 Y84.263
G1 F1800 X78.4 Y135.74 E48.19129
G0 F9750 X80 Y136.394
G1 F1800 X80 Y83.598 E54.5129
G0 F9750 X81.6 Y83.154
G1 F1800 X81.6 Y136.853 E60.94263
G0 F9750 X83.2 Y137.106
G1 F1800 X83.2 Y82.886 E67.43474
G0 F9750 X84.8 Y82.8
G1 F1800 X84.8 Y137.199 E73.94829
G0 F9750 X86.4 Y137.199
G1 F1800 X86.4 Y82.801 E80.46171
G0 F9750 X88 Y82.801
G1 F1800 X88 Y137.199 E86.97514
G0 F9750 X89.6 Y137.199
G1 F1800 X89.6 Y82.801 E93.48856
G0 F9750 X91.2 Y82.801
G1 F1800 X91.2 Y137.199 E100.00199
G0 F9750 X92.8 Y137.199
G1 F1800 X92.8 Y82.801 E106.51541
G0 F9750 X94.4 Y82.801
G1 F1800 X94.4 Y137.199 E113.02884
G0 F9750 X96 Y137.199
G1 F1800 X96 Y82.801 E119.54226
G0 F9750 X97.6 Y82.801
G1 F1800 X97.6 Y137.199 E126.05569
G0 F9750 X99.2 Y137.199
G1 F1800 X99.2 Y82.801 E132.56911
G0 F9750 X100.8 Y82.801
G1 F1800 X100.8 Y137.199 E139.08254
G0 F9750 X102.4 Y137.199
G1 F1800 X102.4 Y82.801 E145.59596
G0 F9750 X104 Y82.801
G1 F1800 X104 Y137.2 E152.10951
G0 F9750 X105.6 Y137.108
G1 F1800 X105.6 Y82.899 E158.6003
G0 F9750 X107.2 Y83.159
G1 F1800 X107.2 Y136.835 E165.02728
G0 F9750 X108.8 Y136.412
G1 F1800 X108.8 Y83.589 E171.35212
G0 F9750 X110.4 Y83.71
G1 F1800 X110.4 Y136.284 E177.64715
G0 F9750 X112 Y136.632
G1 F1800 X112 Y83.368 E184.02479
G0 F9750 X113.6 Y83.007
G1 F1800 X113.6 Y136.993 E190.48889
G0 F9750 X115.2 Y137.166
G1 F1800 X115.2 Y82.833 E196.99453
G0 F9750 X116.8 Y82.801
G1 F1800 X116.8 Y137.199 E203.50795
G0 F9750 X118.4 Y137.199
G1 F1800 X118.4 Y82.801 E210.02138
G0 F9750 X120 Y82.801
G1 F1800 X120 Y137.199 E216.5348
G0 F9750 X121.6 Y137.199
G1 F1800 X121.6 Y82.801 E223.04823
G0 F9750 X123.2 Y82.801
G1 F1800 X123.2 Y137.199 E229.56165
G0 F9750 X124.8 Y137.199
G1 F1800 X124.8 Y82.801 E236.07508
G0 F9750 X126.4 Y82.801
G1 F1800 X126.4 Y137.199 E242.58851
G0 F9750 X128 Y137.199
G1 F1800 X128 Y82.801 E249.10193
G0 F9750 X129.6 Y82.801
G1 F1800 X129.6 Y137.199 E255.61536
G0 F9750 X131.2 Y137.199
G1 F1800 X131.2 Y82.801 E262.12878
G0 F9750 X132.8 Y82.801
G1 F1800 X132.8 Y137.199 E268.64221
G0 F9750 X134.4 Y137.199
G1 F1800 X134.4 Y82.801 E275.15563
G0 F9750 X136 Y82.831
G1 F1800 X136 Y137.171 E281.66211
G0 F9750 X137.6 Y137.001
G1 F1800 X137.6 Y82.998 E288.12824
G0 F9750 X139.2 Y83.354
G1 F1800 X139.2 Y136.647 E294.50936
G0 F9750 X140.8 Y136.097
G1 F1800 X140.8 Y83.906 E300.75853
G0 F9750 X142.4 Y84.676
G1 F1800 X142.4 Y135.318 E306.82222
G0 F9750 X144 Y134.278
G1 F1800 X144 Y85.721 E312.63627
G0 F9750 X145.6 Y87.112
G1 F1800 X145.6 Y132.887 E318.1172
G0 F9750 X147.2 Y130.973
G1 F1800 X147.2 Y89.021 E323.14039
G0 F9750 X148.8 Y91.989
G1 F1800 X148.8 Y128.02 E327.45461
G0 F9750 X150.4 Y124.939
G1 F1800 X150.4 Y95.052 E331.03318
G0 F9750 X152 Y96.471
G1 F1800 X152 Y123.529 E334.27301
G0 F9750 X153.6 Y121.803
G1 F1800 X153.6 Y98.198 E337.09939
G0 F9750 X155.2 Y100.443
G1 F1800 X155.2 Y119.558 E339.38815
G0 F9750 X156.8 Y116.148
G1 F1800 X156.8 Y103.855 E340.86007
G1 F2700 E335.86007
G0 F9750 X157.726 Y103.28
G0 X156.863 Y101.271
G0 X155.957 Y99.644
G0 X147.923 Y88.198
G0 X146.59 Y86.598
G0 X145.633 Y85.675
G0 X143.989 Y84.404
G0 X142.83 Y83.695
G0 X140.95 Y82.813
G0 X139.66 Y82.373
G0 X137.633 Y81.921
G0 X136.307 Y81.774
G0 X84.06 Y81.754
G0 X81.992 Y81.983
G0 X80.677 Y82.279
G0 X78.711 Y82.95
G0 X77.493 Y83.522
G0 X75.727 Y84.601
G0 X74.647 Y85.432
G0 X74.221 Y85.843
G0 X73.025 Y87.017
G0 X73.6 Y87.989
G1 F2700 E340.86007
G1 F1800 X73.6 Y132.02 E346.13219
G0 F9750 X72 Y129.691
G1 F1800 X72 Y90.299 E350.84885
G0 F9750 X70.4 Y93.981
G1 F1800 X70.4 Y126.023 E354.68544
G0 F9750 X68.8 Y124.229
G1 F1800 X68.8 Y95.769 E358.09314
G0 F9750 X67.2 Y97.271
G1 F1800 X67.2 Y122.727 E361.14116
G0 F9750 X65.6 Y120.772
G1 F1800 X65.6 Y99.227 E363.72088
G0 F9750 X64 Y101.925
G1 F1800 X64 Y118.075 E365.65462
G1 F2700 E360.65462
G0 F9750 X62.886 Y118.203
G0 X62.149 Y116.364
G0 X61.708 Y114.82
G0 X61.363 Y113.251
G0 X62.4 Y113.001
G1 F2700 E365.65462
G1 F1800 X62.4 Y107.002 E366.37292
G1 F2700 E361.37292
G0 F300 X62.4 Y107.002 Z0.51
G0 F9750 X61.277 Y107.29
G0 X61.101 Y109.352
G0 X61.133 Y111.252
G0 X61.363 Y113.251
G0 X61.73 Y114.971
G0 X62.337 Y116.883
G0 X63.137 Y118.729
G0 X64.043 Y120.356
G0 X71.335 Y130.682
G0 X72.414 Y130.396
;TIME_ELAPSED:117.806500
;LAYER:-8
M140 S110
;TYPE:SUPPORT
G1 F2700 E366.37292
G1 F1800 X76.945 Y134.928 E366.69264
G1 X76.771 Y134.822 E366.70281
G1 X76.62 Y134.723 E366.71182
G1 X75.907 Y134.212 E366.75558
G1 X75.758 Y134.099 E366.76491
G1 X75.067 Y133.522 E366.80982
G1 X74.954 Y133.422 E366.81735
G1 X74.305 Y132.797 E366.8623
G1 X74.186 Y132.672 E366.87091
G1 X73.582 Y132.001 E366.91596
G1 X73.486 Y131.883 E366.92354
G1 X72.928 Y131.161 E366.96907
G1 X72.823 Y131.014 E366.97808
G1 F2700 E361.97808
G0 F9750 X72.077 Y131.801
G0 X73.41 Y133.402
G0 X74.367 Y134.325
G0 X76.011 Y135.596
G0 X76.945 Y134.928
G1 F2700 E366.97808
G1 F1800 X77.55 Y135.298 E367.01346
G1 X78.462 Y135.772 E367.06474
G1 X78.65 Y135.859 E367.07508
G1 X79.454 Y136.2 E367.11865
G1 X79.619 Y136.264 E367.12748
G1 X79.734 Y136.303 E367.13353
G1 X71.049 Y127.617 E367.74634
G1 X70.962 Y127.389 E367.75852
G1 X70.871 Y127.105 E367.7734
G1 X70.637 Y126.479 E367.80674
G1 X70.321 Y125.873 E367.84083
G1 X69.931 Y125.313 E367.87488
G1 X69.476 Y124.81 E367.90872
G1 X69.14 Y124.51 E367.93119
G1 X68.336 Y123.846 E367.98321
G1 X68.077 Y123.606 E368.00083
G1 X67.078 Y122.605 E368.07139
G1 X66.829 Y122.327 E368.09001
G1 X65.881 Y121.17 E368.16463
G1 X65.684 Y120.898 E368.18139
G1 X65.566 Y120.72 E368.19204
G1 X81.723 Y136.877 E369.332
G1 X82.53 Y137.025 E369.37294
G1 X82.706 Y137.051 E369.38181
G1 X83.386 Y137.127 E369.41595
G1 X63.737 Y117.477 E370.80233
G1 X63.269 Y116.343 E370.86353
G1 X63.163 Y116.037 E370.87969
G1 X62.928 Y115.254 E370.92047
G1 X84.872 Y137.198 E372.46874
G1 X86.286 Y137.198 E372.53929
G1 X62.477 Y113.388 E374.21918
G1 X62.391 Y112.955 E374.2412
G1 X62.334 Y112.558 E374.26121
G1 X62.255 Y111.752 E374.30161
G1 X87.701 Y137.198 E376.09697
G1 X89.115 Y137.198 E376.16751
G1 X62.168 Y110.251 E378.06877
G1 X62.168 Y109.267 E378.11786
G1 X62.186 Y108.899 E378.13624
G1 X62.19 Y108.859 E378.13825
G1 X90.529 Y137.198 E380.13772
G1 X91.943 Y137.198 E380.20826
G1 X62.318 Y107.572 E382.2985
G1 X62.332 Y107.434 E382.30542
G1 X62.384 Y107.082 E382.32317
G1 X62.526 Y106.367 E382.35954
G1 X93.357 Y137.198 E384.53483
G1 X94.772 Y137.198 E384.60543
